!!!!SEGMENT: pl-wtm--r-1582--002_stefani-jozef--marsz-zalobny-no-4-adagio-maestoso.krn
!!!cenid: 18xx:2338
!!!COM: Stefani, Józef
!!!COM-rismid: pe30024097
!!!CDT: 1800/04/16-1876/03/19
!!!CNT: Polish
!!!OTL: Marsz żałobny No. 4 – Adagio maestoso
!!!PDT:
!!!AGN: Secular; March
!!!SMS-siglum: PL-Wtm
!!!SMS-shelfmark: R 1582
!!!SMS-shelfwork: 001-002 M
!!!SMS-variant:
!!!SMS-altvar:
!!!NIFC-rismid: 1001115587
!!!URL-scan: http://repozytorium.nifc.pl/skany/pl-wtm-nut--r1582
!!!ONB-nifc: UWAGA: części: 1. Furioso (Introducjone) (prawa strona skanu 0004 wykreślona), 2. Adagio maestoso (Marsz żałobny), od skanu 0005
!!!OMD:Adgio maestoso.
!!!system-decoration: ({s1,s2},s3,s4,<{g1}>,s7,s8,s9,s10,s11,<{g2}>,{<g3>,s16},{s17,s18},{s19,s20})
**kern	**dynam	**kern	**dynam	**kern	**text	**kern	**text	**text	**kern	**dynam	**kern	**dynam	**kern	**dynam	**kern	**kern	**dynam	**kern	**kern	**dynam	**kern	**dynam	**kern	**dynam	**kern	**dynam	**kern	**dynam	**kern	**dynam	**kern	**dynam	**kern	**dynam	**kern	**dynam	**kern	**dynam
*	*	*	*	*	*	*	*	*	*	*	*group3	*group3	*group3	*group3	*group2	*group2	*group2	*	*	*	*	*	*	*	*	*	*group1	*group1	*group1	*group1	*	*	*	*	*	*	*	*
*part20	*part20	*part19	*part19	*part18	*part18	*part17	*part17	*part17	*part16	*part16	*part15	*part15	*part14	*part14	*part13	*part12	*part12	*part11	*part10	*part10	*part9	*part9	*part8	*part8	*part7	*part7	*part6	*part6	*part5	*part5	*part4	*part4	*part3	*part3	*part2	*part2	*part1	*part1
*staff20	*	*staff19	*	*staff18	*staff18	*staff17	*staff17	*staff17	*staff16	*	*staff15	*	*staff14	*	*staff13	*staff12	*	*staff11	*staff10	*	*staff9	*	*staff8	*	*staff7	*	*staff6	*	*staff5	*	*staff4	*	*staff3	*	*staff2	*	*staff1	*
*	*	*	*	*	*	*	*	*	*	*	*	*	*	*	*	*	*	*	*	*	*	*	*	*	*	*	*""Corni	*	*""Corni	*	*	*	*	*	*	*	*	*
*I"C: Baſsi	*	*I"Violoncelli	*	*I"Baſsi	*	*I"Choro. Tenori	*	*	*I"Viole	*	*I"Violini	*	*I"Violini	*	*I"Tromboni	*I"Tromboni	*	*I"Banda	*I"Timpani	*	*I"in B. Trombe	*	*I"in C Trombe	*	*I"Fagotti	*	*I"in Es	*	*I"in B	*	*I"in B Clarinetti	*	*I"Oboe	*	*I"Picolo	*	*I"Flauto	*
*clefF4	*	*clefF4	*	*clefF4	*	*clefC4	*	*	*clefC3	*	*clefG2	*	*clefG2	*	*clefF4	*clefC4	*	*clefF4	*clefF4	*	*clefG2	*	*clefG2	*	*clefF4	*	*clefG2	*	*clefG2	*	*clefG2	*	*clefG2	*	*clefG2	*	*clefG2	*
*ITrd0c0	*	*	*	*	*	*	*	*	*	*	*	*	*	*	*	*	*	*	*	*	*ITrd1c2	*	*	*	*	*	*ITrd-2c-3	*	*ITrd1c2	*	*ITrd1c2	*	*	*	*ITrd0c0	*	*	*
*k[b-e-a-d-g-]	*	*k[b-e-a-d-g-]	*	*k[b-e-a-d-g-]	*	*k[b-e-a-d-g-]	*	*	*k[b-e-a-d-g-]	*	*k[b-e-a-d-g-]	*	*k[b-e-a-d-g-]	*	*k[b-e-a-d-g-]	*k[b-e-a-d-g-]	*	*k[b-e-a-d-g-]	*k[b-e-a-d-g-]	*	*k[b-e-a-d-g-]	*	*k[b-e-a-d-g-]	*	*k[b-e-a-d-g-]	*	*k[b-e-a-d-g-]	*	*k[b-e-a-d-g-]	*	*k[b-e-a-d-g-]	*	*k[b-e-a-d-g-]	*	*k[b-e-a-d-g-]	*	*k[b-e-a-d-g-]	*
*D-:	*	*D-:	*	*D-:	*	*D-:	*	*	*D-:	*	*D-:	*	*D-:	*	*D-:	*D-:	*	*D-:	*D-:	*	*D-:	*	*D-:	*	*D-:	*	*D-:	*	*D-:	*	*D-:	*	*D-:	*	*D-:	*	*D-:	*
*M4/4	*	*M4/4	*	*M4/4	*	*M4/4	*	*	*M4/4	*	*M4/4	*	*M4/4	*	*M4/4	*M4/4	*	*M4/4	*M4/4	*	*M4/4	*	*M4/4	*	*M4/4	*	*M4/4	*	*M4/4	*	*M4/4	*	*M4/4	*	*M4/4	*	*M4/4	*
*met(c)	*	*met(c)	*	*met(c)	*	*met(c)	*	*	*met(c)	*	*met(c)	*	*met(c)	*	*met(c)	*met(c)	*	*met(c)	*met(c)	*	*met(c)	*	*met(c)	*	*met(c)	*	*met(c)	*	*met(c)	*	*met(c)	*	*met(c)	*	*met(c)	*	*met(c)	*
!	!	!LO:TX:b:t=pizz.	!	!	!	!	!	!	!LO:TX:b:t=pizz.	!	!	!	!LO:TX:a:t=pizz.	!	!	!	!	!LO:TX:t=P:problem:na pierwszej stronie (nr 6, skan 005) Banda pod puzonami, ale już od s. 7 skanu 0006 Banda nad puzonami	!	!	!	!	!	!	!	!	!	!	!	!	!	!	!	!	!	!	!	!
*all\right	*	*all\right	*	*all\right	*	*all\right	*	*	*all\right	*	*all\right	*	*all\right	*	*all\right	*all\right	*	*all\right	*all\right	*	*all\right	*	*all\right	*	*all\right	*	*all\right	*	*all\right	*	*all\right	*	*all\right	*	*all\right	*	*all\right	*
4r	.	8.F\L	.	4r	.	4r	.	.	8.f\L	.	8.f/L	.	8.f/L	.	4r	4r	.	4r	4r	.	4r	.	4r	.	4r	.	4r	.	4r	.	4r	.	4r	.	4r	.	4r	.
.	.	16F\Jk	.	.	.	.	.	.	16f\Jk	.	16f/Jk	.	16f/Jk	.	.	.	.	.	.	.	.	.	.	.	.	.	.	.	.	.	.	.	.	.	.	.	.	.
=1	=1	=1	=1	=1	=1	=1	=1	=1	=1	=1	=1	=1	=1	=1	=1	=1	=1	=1	=1	=1	=1	=1	=1	=1	=1	=1	=1	=1	=1	=1	=1	=1	=1	=1	=1	=1	=1	=1
*	*	*	*	*	*	*^	*	*	*	*	*	*	*	*	*	*	*	*	*	*	*	*	*	*	*	*	*	*	*	*	*	*	*	*	*	*	*	*
1r	.	4BB-/	.	2r	.	2r	2rBByy	.	.	4B-/	.	4b-/	.	4b-/	.	1r	1r	.	1ryy	1r	.	1r	.	1r	.	1r	.	1r	.	1r	.	1r	.	1r	.	1r	.	1r	.
.	.	8.F\L	.	.	.	.	.	.	.	8.f\L	.	8.f/L	.	8.f/L	.	.	.	.	.	.	.	.	.	.	.	.	.	.	.	.	.	.	.	.	.	.	.	.	.
.	.	16F\Jk	.	.	.	.	.	.	.	16f\Jk	.	16f/Jk	.	16f/Jk	.	.	.	.	.	.	.	.	.	.	.	.	.	.	.	.	.	.	.	.	.	.	.	.	.
.	.	4BB-/	.	4r	.	4r	4rBByy	.	.	4B-/	.	4b-/	.	4b-/	.	.	.	.	.	.	.	.	.	.	.	.	.	.	.	.	.	.	.	.	.	.	.	.	.
.	.	8.F\L	.	8.F\	Re-	8.F/	8.F\	.	.	8.f\L	.	8.f/L	.	8.f/L	.	.	.	.	.	.	.	.	.	.	.	.	.	.	.	.	.	.	.	.	.	.	.	.	.
.	.	16E-\Jk	.	16E-\	-qui-	16An/	16F\	.	.	16e-\Jk	.	16f/Jk	.	16an/Jk	.	.	.	.	.	.	.	.	.	.	.	.	.	.	.	.	.	.	.	.	.	.	.	.	.
=2	=2	=2	=2	=2	=2	=2	=2	=2	=2	=2	=2	=2	=2	=2	=2	=2	=2	=2	=2	=2	=2	=2	=2	=2	=2	=2	=2	=2	=2	=2	=2	=2	=2	=2	=2	=2	=2	=2	=2
*	*	*	*	*	*	*	*	*	*	*	*	*	*	*	*	*	*	*	*	*	*	*	*	*	*	*	*	*	*	*	*	*^	*	*^	*	*	*	*	*
1r	.	4D-\	.	4D-\	-em	4B-/	4F\	.	.	4d-\	.	4f/	.	4b-\	.	1r	1r	.	1ryy	4r	.	1r	.	1r	.	1r	.	1r	.	1r	.	2rd	1rf	.	2rg	1r	.	1r	.	1r	.
!	!	!	!	!	!	!	!	!	!	!	!	!	!	!	!	!	!	!	!	!	!LO:DY:rj	!	!	!	!	!	!	!	!	!	!	!	!	!	!	!	!	!	!	!	!
.	.	8.AAn/L	.	8.AAn/	Re-	8.c/	8.F\	.	.	8.An/L	.	8.f/L	.	8.cc\L	.	.	.	.	.	8.F\L	pp	.	.	.	.	.	.	.	.	.	.	.	.	.	.	.	.	.	.	.	.
.	.	16AA/Jk	.	16AA/	-qui-	16c/	16F\	.	.	16A/Jk	.	16f/Jk	.	16cc\Jk	.	.	.	.	.	16F\Jk	.	.	.	.	.	.	.	.	.	.	.	.	.	.	.	.	.	.	.	.	.
.	.	4BB-/	.	4BB-/	-em	4d-/	4F\	.	.	4B-/	.	4f/	.	4dd-\	.	.	.	.	.	4BB-/	.	.	.	.	.	.	.	.	.	.	.	4rd	.	.	4r	.	.	.	.	.	.
.	.	4r	.	4r	.	4rc	4rBByy	.	.	4r	.	4r	.	4r	.	.	.	.	.	4r	.	.	.	.	.	.	.	.	.	.	.	8.f/L	.	.	8.ff|/L	.	.	.	.	.	.
.	.	.	.	.	.	.	.	.	.	.	.	.	.	.	.	.	.	.	.	.	.	.	.	.	.	.	.	.	.	.	.	16f/Jk	.	.	16ff|/Jk	.	.	.	.	.	.
=3	=3	=3	=3	=3	=3	=3	=3	=3	=3	=3	=3	=3	=3	=3	=3	=3	=3	=3	=3	=3	=3	=3	=3	=3	=3	=3	=3	=3	=3	=3	=3	=3	=3	=3	=3	=3	=3	=3	=3	=3	=3
1r	.	2r	.	2r	.	2r	2rBByy	.	.	2r	.	2r	.	2r	.	1r	1r	.	1ryy	1r	.	1r	.	1r	.	(4d-\ 4B-\	p	1r	.	1r	.	(4b-/	1rf	.	(4bb-/	1r	.	1r	.	1r	.
.	.	.	.	.	.	.	.	.	.	.	.	.	.	.	.	.	.	.	.	.	.	.	.	.	.	4e-\ 4c\	.	.	.	.	.	8.a-/L)	.	.	8.aa-/L)	.	.	.	.	.	.
.	.	.	.	.	.	.	.	.	.	.	.	.	.	.	.	.	.	.	.	.	.	.	.	.	.	.	.	.	.	.	.	16g-'/Jk	.	.	16gg-'/Jk	.	.	.	.	.	.
.	.	4r	.	4r	.	4rc	4rBByy	.	.	4r	.	4r	.	4r	.	.	.	.	.	.	.	.	.	.	.	4d-\)	.	.	.	.	.	4f'/	.	.	4ff'/	.	.	.	.	.	.
.	.	8.F\L	.	8.F\L	ae-	8.F/L	4F\	ae-	.	8.f\L	.	8.f/L	.	8.f/L	.	.	.	.	.	.	.	.	.	.	.	4r	.	.	.	.	.	4rd	.	.	4r	.	.	.	.	.	.
.	.	16E-\Jk	.	16E-\Jk	.	16An/Jk	.	.	.	16e-\Jk	.	16f/Jk	.	16an/Jk	.	.	.	.	.	.	.	.	.	.	.	.	.	.	.	.	.	.	.	.	.	.	.	.	.	.	.
*	*	*	*	*	*	*	*	*	*	*	*	*	*	*	*	*	*	*	*	*	*	*	*	*	*	*	*	*	*	*	*	*	*	*	*v	*v	*	*	*	*	*
=4	=4	=4	=4	=4	=4	=4	=4	=4	=4	=4	=4	=4	=4	=4	=4	=4	=4	=4	=4	=4	=4	=4	=4	=4	=4	=4	=4	=4	=4	=4	=4	=4	=4	=4	=4	=4	=4	=4	=4	=4
*	*	*^	*	*	*	*	*	*	*	*	*	*	*	*	*	*	*	*	*	*	*	*	*	*	*	*^	*	*	*	*	*	*	*	*	*	*	*	*	*	*
*	*	*	*	*	*	*	*	*2\right	*	*	*	*	*	*	*	*	*	*	*	*	*	*	*	*	*	*	*	*	*	*	*	*	*	*	*	*	*	*	*	*	*	*
!	!	!	!	!	!	!	!LO:TX:t=P:problem:2\right:global	!	!	!	!	!	!	!	!	!	!	!	!	!	!	!	!	!	!	!	!	!	!	!	!	!	!	!	!	!	!	!	!	!	!	!
1r	.	4D-/	2.rEEyy	.	(4D-\	-ter-	(4B-/	2F\	-ter-	.	4d-\	.	4f/	.	4b-\	.	1r	1r	.	1ryy	4r	.	1r	.	1r	.	2rGG	1r	.	1r	.	1r	.	2rd	1rf	.	1r	.	1r	.	1r	.
!	!	!	!	!	!	!	!	!	!	!	!	!	!	!	!	!	!	!	!	!	!	!LO:DY:rj	!	!	!	!	!	!	!	!	!	!	!	!	!	!	!	!	!	!	!	!
.	.	8.AAn/L	.	.	4AAn/)	.	4c/)	.	.	.	8.An/L	.	8.f/L	.	8.cc\L	.	.	.	.	.	8.F\L	pp	.	.	.	.	.	.	.	.	.	.	.	.	.	.	.	.	.	.	.	.
.	.	16AA/Jk	.	.	.	.	.	.	.	.	16A/Jk	.	16f/Jk	.	16cc\Jk	.	.	.	.	.	16F\Jk	.	.	.	.	.	.	.	.	.	.	.	.	.	.	.	.	.	.	.	.	.
.	.	4BB-/	.	.	4BB-/	-nam	4d-/	4F\	-nam	.	4B-/	.	4f/	.	4dd-\	.	.	.	.	.	4BB-/	.	.	.	.	.	4rGG	.	.	.	.	.	.	4rd	.	.	.	.	.	.	.	.
*	*	*clefC4	*	*	*	*	*	*	*	*	*	*	*	*	*	*	*	*	*	*	*	*	*	*	*	*	*clefC4	*	*	*	*	*	*	*	*	*	*	*	*	*	*	*
!	!	!LO:TX:a:i:t=Solo	!	!	!	!	!	!	!	!	!	!	!	!	!	!	!	!	!	!	!	!	!	!	!	!	!	!	!	!	!	!	!	!	!	!	!	!	!	!	!	!
!	!	!LO:TX:b:t=arco	!	!	!	!	!	!	!	!	!	!	!	!	!	!	!	!	!	!	!	!	!	!	!	!	!	!	!	!	!	!	!	!	!	!	!	!	!	!	!	!
.	.	8.f/L	4rc	.	4r	.	8.f/	4rc	do-	.	4r	.	4r	.	4r	.	.	.	.	.	4r	.	.	.	.	.	8.f/L	.	.	.	.	.	.	8.ff/L	.	.	.	.	.	.	.	.
!	!	!LO:TX:t=P:problem:po tej stronie wklejka z trzytaktowym, innym wariantem tego fragmentu	!	!	!	!	!	!	!	!	!	!	!	!	!	!	!	!	!	!	!	!	!	!	!	!	!	!	!	!	!	!	!	!	!	!	!	!	!	!	!	!
.	.	16f/Jk	.	.	.	.	16f/	.	-na	.	.	.	.	.	.	.	.	.	.	.	.	.	.	.	.	.	16f/Jk	.	.	.	.	.	.	16ff/Jk	.	.	.	.	.	.	.	.
*	*	*v	*v	*	*	*	*	*	*	*	*	*	*	*	*	*	*	*	*	*	*	*	*	*	*	*	*	*	*	*	*	*	*	*	*	*	*	*	*	*	*	*
!!LO:PB:g=original
=5	=5	=5	=5	=5	=5	=5	=5	=5	=5	=5	=5	=5	=5	=5	=5	=5	=5	=5	=5	=5	=5	=5	=5	=5	=5	=5	=5	=5	=5	=5	=5	=5	=5	=5	=5	=5	=5	=5	=5	=5	=5
!LO:TX:t=arco	!	!	!	!	!	!	!	!	!	!	!	!	!	!	!	!	!	!	!	!	!	!	!	!	!	!	!	!	!	!	!	!	!	!	!	!	!	!	!	!	!
4E-\	p	(8f\L	.	4r	.	8f/L	4rc	e-	.	4r	.	4r	.	4r	.	1r	1r	.	1ryy	1r	.	1r	.	1r	.	(8f/L	4r	.	1r	.	4r	.	(8ff/L	4r	.	1r	.	1r	.	1r	.
.	.	8g-\	.	.	.	8g-/J	.	.	.	.	.	.	.	.	.	.	.	.	.	.	.	.	.	.	.	8g-/	.	.	.	.	.	.	8gg-/	.	.	.	.	.	.	.	.
!	!	!	!	!	!	!	!	!	!	!	!	!	!	!LO:TX:b:t=arco	!	!	!	!	!	!	!	!	!	!	!	!	!	!	!	!	!	!	!	!	!	!	!	!	!	!	!
4r	.	8.e-\)	.	8.E-\	e-	8.e-/L	8.G-\	-is	[[Do]]	4e-\	.	4g-X/	.	4cc\	.	.	.	.	.	.	.	.	.	.	.	8.e-/)	4E-\	.	.	.	4ee-\ 4cc\	p	8.ee-/)	4g-X\	.	.	.	.	.	.	.
.	.	16c|\Jk	.	16E-\	-is	16c/Jk	16G-\	.	.	.	.	.	.	.	.	.	.	.	.	.	.	.	.	.	.	16c|/Jk	.	.	.	.	.	.	16cc|/Jk	.	.	.	.	.	.	.	.
4F\	.	4B-\	.	4F\	Do-	4d-/	4B-\	.	.	4d-\	.	4f/	.	4b-\	.	.	.	.	.	.	.	.	.	.	.	4B-/	4F\	.	.	.	4dd-X\ 4b-\	.	4b-/	4f\	.	.	.	.	.	.	.
8.FF/L	.	8.c\L	.	4F\	-mi-	4c/	4An\	.	.	8.c\L	.	8.an/L 8.f/	.	8.cc\L	.	.	.	.	.	.	.	.	.	.	.	8.c/L	8.F\L	.	.	.	8.dd-/L 8.f/	.	8.cc/L	8.a\L	.	.	.	.	.	.	.
16FF/Jk	.	16c\Jk	.	.	.	.	.	.	.	16c\Jk	.	16a/Jk 16f/	.	16cc\Jk	.	.	.	.	.	.	.	.	.	.	.	16c/Jk	16F\Jk	.	.	.	16cc/Jk 16f/	.	16cc/Jk	16a\Jk	.	.	.	.	.	.	.
=6	=6	=6	=6	=6	=6	=6	=6	=6	=6	=6	=6	=6	=6	=6	=6	=6	=6	=6	=6	=6	=6	=6	=6	=6	=6	=6	=6	=6	=6	=6	=6	=6	=6	=6	=6	=6	=6	=6	=6	=6	=6
*	*	*	*	*	*	*	*	*	*	*	*	*	*	*	*	*	*	*	*	*	*	*	*	*	*	*	*	*	*	*	*	*	*	*	*	*^	*	*	*	*	*
4BB-/	.	4d-\	.	4BB-/	-ne	4d-/	4B-\	.	.	4B-/	.	4b-/ 4f/	.	4dd-\	.	4r	4r	.	1ryy	1r	.	1r	.	1r	.	4d-/	4B-\	.	1r	.	4dd-/ 4f/	.	4dd-X/	4b-\	.	4r	4rcyy	.	1r	.	1r	.
!	!	!	!	!	!	!	!	!	!	!	!	!	!	!	!	!	!	!LO:DY:rj	!	!	!	!	!	!	!	!	!	!	!	!	!	!	!	!	!	!	!	!	!	!	!	!
8.G-\L	.	8.e-\L	.	4r	.	4rc	4rBByy	.	.	8.g-X\L	.	8.b-/L	.	8.ee-\L	.	8.G-X^\L	8.e-\L 8.B-\	p >	.	.	.	.	.	.	.	8.g-X/L	8.G-^\L	.	.	.	4r	.	8.ee-/L	8.b-^\L	.	8.ee-/L	8.b-\L	.	.	.	.	.
16G-\Jk	.	16e-\Jk	.	.	.	.	.	.	.	16g-\Jk	.	16b-/Jk	.	16ee-\Jk	.	16G-\Jk	16e-\Jk 16B-\	]	.	.	.	.	.	.	.	16g-/Jk	16G-\Jk	.	.	.	.	.	16ee-/Jk	16b-\Jk	.	16ee-/Jk	16b-\Jk	.	.	.	.	.
4F\	.	4f\	.	2r	.	4rc	4rBByy	.	.	4f\	.	4an/	.	4ff\	.	4F\	4f\ 4An\	.	.	.	.	.	.	.	.	4f/	4F\	.	.	.	2r	.	4ff/	4a\	.	4ff/	4an\	.	.	.	.	.
4r	.	8.f\L	.	.	.	8.f/	4rc	Do-	.	4r	.	4r	.	4r	.	4r	4r	.	.	.	.	.	.	.	.	8.f/L	4r	.	.	.	.	.	8.ff/L	4rcc	.	4r	4rcyy	.	.	.	.	.
.	.	16f\Jk	.	.	.	16f/	.	-na	.	.	.	.	.	.	.	.	.	.	.	.	.	.	.	.	.	16f/Jk	.	.	.	.	.	.	16ff/Jk	.	.	.	.	.	.	.	.	.
*	*	*	*	*	*	*	*	*	*	*	*	*	*	*	*	*	*	*	*	*	*	*	*	*	*	*	*	*	*	*	*	*	*	*	*	*v	*v	*	*	*	*	*
=7	=7	=7	=7	=7	=7	=7	=7	=7	=7	=7	=7	=7	=7	=7	=7	=7	=7	=7	=7	=7	=7	=7	=7	=7	=7	=7	=7	=7	=7	=7	=7	=7	=7	=7	=7	=7	=7	=7	=7	=7	=7
4E-\	.	(8f\L	.	4r	.	8f/L	4rc	e-	.	4r	.	4r	.	4r	.	1r	1r	.	1ryy	1r	.	1r	.	1r	.	(8f/L	4r	.	1r	.	4r	.	(8ff/L	4rcc	.	1r	.	1r	.	1r	.
.	.	8g-\	.	.	.	8g-/J	.	.	.	.	.	.	.	.	.	.	.	.	.	.	.	.	.	.	.	8g-/	.	.	.	.	.	.	8gg-/	.	.	.	.	.	.	.	.
4r	.	8.e-\)	.	8.E-\	e-	8.e-/L	8.G-\	-is	e-	4e-\	.	4g-X/	.	4cc\	.	.	.	.	.	.	.	.	.	.	.	8.e-/	4E-\	.	.	.	4ee-\ 4cc\	.	8.ee-/)	4g-X\	.	.	.	.	.	.	.
.	.	16c|\Jk	.	16E-\	-is	16c/Jk	16G-\	.	-is	.	.	.	.	.	.	.	.	.	.	.	.	.	.	.	.	16c|/Jk)	.	.	.	.	.	.	16cc|/Jk	.	.	.	.	.	.	.	.
4F\	.	(4B-\	.	4F\	Do-	4d-/	4B-\	Do-	.	4d-\	.	(4f/	.	(4b-/	.	.	.	.	.	.	.	.	.	.	.	(4B-/	4F\	.	.	.	4dd-X\ 4b-\	.	(4b-/	4f\	.	.	.	.	.	.	.
8.FF/L	.	8.An\L)	.	4F\	-mi-	4c/	4An\	-mi-	.	8.f\L 8.c\	.	8.e-/L)	.	8.an/L)	.	.	.	.	.	.	.	.	.	.	.	8.An/L)	8.F\L	.	.	.	8.cc\L 8.f\	.	8.a/L)	8.e-\L	.	.	.	.	.	.	.
16FF/Jk	.	16A|\Jk	.	.	.	.	.	.	.	16f\Jk 16c\	.	16e-|/Jk	.	16a|/Jk	.	.	.	.	.	.	.	.	.	.	.	16A|/Jk	16F\Jk	.	.	.	16cc\Jk 16f\	.	16a/Jk	16e-\Jk	.	.	.	.	.	.	.
*	*	*	*	*	*	*	*	*	*	*	*	*	*	*	*	*	*	*	*	*	*	*	*	*	*	*v	*v	*	*	*	*	*	*	*	*	*	*	*	*	*	*
=8	=8	=8	=8	=8	=8	=8	=8	=8	=8	=8	=8	=8	=8	=8	=8	=8	=8	=8	=8	=8	=8	=8	=8	=8	=8	=8	=8	=8	=8	=8	=8	=8	=8	=8	=8	=8	=8	=8	=8	=8
4BB-/	.	4B-\	.	4B-\	-ne	4B-/	4B-\	-ne	.	4f\ 4B-\	f	4d-/	.	4b-\	f	4r	4r	.	2.ryy	4r	.	4r	.	4r	.	4B-/ 4BB-/	.	4r	.	4b-/ 4d-X/	.	4b-/	4d-\	.	4r	.	4r	.	4r	f
*	*	*clefF4	*	*	*	*	*	*	*	*	*	*	*	*	*	*	*	*	*	*	*	*	*	*	*	*	*	*	*	*	*	*	*	*	*	*	*	*	*	*
!	!LO:DY:rj	!	!	!	!	!	!	!	!	!	!	!	!	!	!	!	!	!LO:DY:rj	!	!	!LO:DY:rj	!	!	!	!LO:DY:rj	!	!	!	!	!	!	!	!	!	!	!	!	!	!	!
8.BB-/L	f	8.BB-/L	.	4r	.	4rc	4rBByy	.	.	8.f\L 8.B-\	.	8.dd-/L 8.f/	.	8.bb-\L 8.b-\	.	8.B-\L 8.BB-\	8.d-/L 8.F/	f	.	8.BB-/L	f	8.B-/L	.	8.b-/L 8.d-/	f	4r	.	8.ff/L 8.b-/	.	8.b-/L 8.d-/	f	4r	4rByy	.	8.bb-\L 8.dd-\	.	8.bb-\L	.	8.ddd-X\L	.
16BB-/Jk	.	16BB-/Jk	.	.	.	.	.	.	.	16f\Jk 16B-\	.	16dd-/Jk 16f/	.	16bb-\Jk 16b-\	.	16B-\Jk 16BB-\	16d-/Jk 16F/	.	.	16BB-/Jk	.	16B-/Jk	.	16b-/Jk 16d-/	.	.	.	16ff/Jk 16b-/	.	16b-/Jk 16d-/	.	.	.	.	16bb-\Jk 16dd-\	.	16bb-\Jk	.	16ddd-\Jk	.
4BB-/	.	4BB-/	.	4r	.	4rc	4rBByy	.	.	4f\ 4B-\	.	4dd-/ 4f/	.	4bb-\ 4b-\	.	4B-\ 4BB-\	4d-/ 4F/	.	.	4BB-/	.	4B-/	.	4b-/ 4d-/	.	4r	.	4ff/ 4b-/	.	4b-/ 4d-/	.	4r	4rByy	.	4bb-\ 4dd-\	.	4bb-\	.	4ddd-\	.
*	*	*	*	*	*	*v	*v	*	*	*	*	*	*	*	*	*	*	*	*	*	*	*	*	*	*	*	*	*	*	*	*	*	*	*	*	*	*	*	*	*
=:|!|:	=:|!|:	=:|!|:	=:|!|:	=:|!|:	=:|!|:	=:|!|:	=:|!|:	=:|!|:	=:|!|:	=:|!|:	=:|!|:	=:|!|:	=:|!|:	=:|!|:	=:|!|:	=:|!|:	=:|!|:	=:|!|:	=:|!|:	=:|!|:	=:|!|:	=:|!|:	=:|!|:	=:|!|:	=:|!|:	=:|!|:	=:|!|:	=:|!|:	=:|!|:	=:|!|:	=:|!|:	=:|!|:	=:|!|:	=:|!|:	=:|!|:	=:|!|:	=:|!|:	=:|!|:	=:|!|:
*	*	*	*	*	*	*	*	*	*	*	*	*	*	*	*	*	*	*	*	*	*	*	*^	*	*	*	*	*	*	*	*	*	*	*	*	*	*	*	*
*	*	*	*	*	*	*	*	*	*	*	*	*	*	*	*	*	*	*	*	*	*	*	*	*	*	*clefF4	*	*	*	*	*	*	*	*	*	*	*	*	*	*
!	!	!	!	!	!	!	!	!	!	!	!	!	!	!	!	!	!	!	!	!	!	!	!LO:TX:a:t=1o.	!	!LO:DY:rj	!	!	!	!	!	!	!	!	!	!	!	!	!	!	!
4r	.	4r	.	4r	.	4r	.	.	4r	.	4r	.	4r	.	4r	4r	.	4ryy	4r	.	4r	.	8.a-/L	4re	p	8.A-\L	p	4r	.	4r	.	8.a-/L	8.a-\L	.	8.a-/L	.	4r	.	4r	.
!	!	!	!	!	!	!	!	!	!	!	!	!	!	!	!	!	!	!	!	!	!	!	!	!	!	!	!	!	!	!	!	!	!	!LO:DY:rj	!	!	!	!	!	!
.	.	.	.	.	.	.	.	.	.	.	.	.	.	.	.	.	.	.	.	.	.	.	16a-/Jk	.	.	16A-\Jk	.	.	.	.	.	16a-/Jk	16a-\Jk	p	16a-/Jk	.	.	.	.	.
=9	=9	=9	=9	=9	=9	=9	=9	=9	=9	=9	=9	=9	=9	=9	=9	=9	=9	=9	=9	=9	=9	=9	=9	=9	=9	=9	=9	=9	=9	=9	=9	=9	=9	=9	=9	=9	=9	=9	=9	=9
*	*	*	*	*	*	*	*	*	*	*	*	*	*	*	*	*	*	*	*	*	*	*	*	*	*	*^	*	*	*	*	*	*	*	*	*	*	*	*	*	*
1r	.	2r	.	1r	.	1r	.	.	2r	.	2r	.	2r	.	1r	1r	.	1ryy	1r	.	1r	.	2.a-/	1rg	.	4d-\ 4D-\	2.rEEyy	.	1r	.	1r	.	4dd-/	4f\	.	4dd-/ 4f/	.	1r	.	1r	.
.	.	.	.	.	.	.	.	.	.	.	.	.	.	.	.	.	.	.	.	.	.	.	.	.	.	8.c\L 8.C\	.	.	.	.	.	.	8.ee-/L	8.a-\L	.	8.ee-/L 8.a-/	.	.	.	.	.
.	.	.	.	.	.	.	.	.	.	.	.	.	.	.	.	.	.	.	.	.	.	.	.	.	.	16c\Jk 16C\	.	.	.	.	.	.	16ee-/Jk	16a-\Jk	.	16ee-/Jk 16a-/	.	.	.	.	.
.	.	8r	.	.	.	.	.	.	8r	.	8r	.	8r	p	.	.	.	.	.	.	.	.	.	.	.	4d-\ 4D-\	.	.	.	.	.	.	4ff/	4a-\	.	4ff/ 4a-/	.	.	.	.	.
.	.	(32A-\LLL	p	.	.	.	.	.	(32A-/LLL	.	(32a-/LLL	.	(32a-/LLL	.	.	.	.	.	.	.	.	.	.	.	.	.	.	.	.	.	.	.	.	.	.	.	.	.	.	.	.
.	.	32Gn\	.	.	.	.	.	.	32Gn/	.	32gn/	.	32gn/	.	.	.	.	.	.	.	.	.	.	.	.	.	.	.	.	.	.	.	.	.	.	.	.	.	.	.	.
.	.	32A-\	.	.	.	.	.	.	32A-/	.	32a-/	.	32a-/	.	.	.	.	.	.	.	.	.	.	.	.	.	.	.	.	.	.	.	.	.	.	.	.	.	.	.	.
.	.	32G\JJ	.	.	.	.	.	.	32G/JJ	.	32g/JJ	.	32g/JJ	.	.	.	.	.	.	.	.	.	.	.	.	.	.	.	.	.	.	.	.	.	.	.	.	.	.	.	.
.	.	8A-\J)	.	.	.	.	.	.	8A-/J)	.	8a-/J)	.	8a-/J)	.	.	.	.	.	.	.	.	.	8.a-/L	.	.	8.A-/L	8.A-\L	.	.	.	.	.	8.a-/L	8.a-\L	.	8.a-/L	.	.	.	.	.
.	.	8r	.	.	.	.	.	.	8r	.	8r	.	8r	.	.	.	.	.	.	.	.	.	.	.	.	.	.	.	.	.	.	.	.	.	.	.	.	.	.	.	.
.	.	.	.	.	.	.	.	.	.	.	.	.	.	.	.	.	.	.	.	.	.	.	16a-/Jk	.	.	16A-/Jk	16A-\Jk	.	.	.	.	.	16a-/Jk	16a-\Jk	.	16a-/Jk	.	.	.	.	.
*	*	*	*	*	*	*	*	*	*	*	*	*	*	*	*	*	*	*	*	*	*	*	*	*	*	*v	*v	*	*	*	*	*	*v	*v	*	*	*	*	*	*	*
!!LO:PB:g=original
=10	=10	=10	=10	=10	=10	=10	=10	=10	=10	=10	=10	=10	=10	=10	=10	=10	=10	=10	=10	=10	=10	=10	=10	=10	=10	=10	=10	=10	=10	=10	=10	=10	=10	=10	=10	=10	=10	=10	=10
*	*	*	*	*	*	*	*	*	*	*	*	*	*	*	*	*	*	*	*	*	*	*	*	*	*	*	*	*	*	*^	*	*	*	*	*	*	*	*	*
!	!	!	!	!	!	!	!	!	!	!	!	!	!	!	!	!	!	!	!	!	!LO:TX:t=P:problem:partie kotłów i trąbki B na tej stronie zamienione	!	!	!	!	!	!	!	!	!	!	!	!	!	!	!	!	!	!	!
2r	.	2r	.	2r	.	2r	.	.	2r	.	2r	.	2r	.	2r	2r	.	1ryy	1r	.	2r	.	2.a-/	2rg	.	4c\ 4C\	.	2r	.	2r	2rByy	.	4ee-\ 4a-\	.	4ee-\ 4a-\	.	2r	.	2r	.
.	.	.	.	.	.	.	.	.	.	.	.	.	.	.	.	.	.	.	.	.	.	.	.	.	.	8.d-\L 8.D-\	.	.	.	.	.	.	8.ff\L 8.a-\	.	8.ff\L 8.dd-\	.	.	.	.	.
.	.	.	.	.	.	.	.	.	.	.	.	.	.	.	.	.	.	.	.	.	.	.	.	.	.	16d-\Jk 16D-\	.	.	.	.	.	.	16ff\Jk 16a-\	.	16ff\Jk 16dd-\	.	.	.	.	.
4r	.	8r	.	4r	.	4r	.	.	8r	.	8r	.	8r	.	4r	4r	.	.	.	.	4r	.	.	4rg	.	4e-\ 4E-\	.	4r	.	4r	4rByy	.	4gg-\ 4a-\	.	4gg-\ 4cc\	.	4r	.	4r	.
.	.	(32A-\LLL	.	.	.	.	.	.	(32A-/LLL	.	(32a-/LLL	.	(32a-/LLL	.	.	.	.	.	.	.	.	.	.	.	.	.	.	.	.	.	.	.	.	.	.	.	.	.	.	.
.	.	32Gn\	.	.	.	.	.	.	32Gn/	.	32gn/	.	32gn/	.	.	.	.	.	.	.	.	.	.	.	.	.	.	.	.	.	.	.	.	.	.	.	.	.	.	.
.	.	32A-\	.	.	.	.	.	.	32A-/	.	32a-/	.	32a-/	.	.	.	.	.	.	.	.	.	.	.	.	.	.	.	.	.	.	.	.	.	.	.	.	.	.	.
.	.	32G\JJ	.	.	.	.	.	.	32G/JJJ	.	32g/JJJ	.	32g/JJJ	.	.	.	.	.	.	.	.	.	.	.	.	.	.	.	.	.	.	.	.	.	.	.	.	.	.	.
!	!LO:DY:rj	!	!	!	!	!	!	!	!	!	!	!	!	!	!	!	!LO:DY:rj	!	!	!	!	!	!	!	!	!	!LO:DY:rj	!	!	!	!	!	!	!	!	!	!	!	!	!
8.A-\L	f	8.A-\)	.	4A-\	Et	4A-\	Et	.	8.A-/L)	.	8.a-/L)	.	8.a-/L)	.	8.A-\L	8.A-/L	f	.	.	.	8.a-X/L	.	8.a-/L	8.a-\L	.	8.A-/L 8.AA-/	f	8.a-/L	.	8.a-X/L	8.a-X\L	.	8.a-\L	.	8.a-/L	f	8.a-/L	.	8.aa-\L	f
16A-\Jk	.	16A-'\Jk	.	.	.	.	.	.	16A-|/Jk	.	16a-|/Jk	.	16a-|/Jk	.	16A-\Jk	16A-/Jk	.	.	.	.	16a-/Jk	.	16a-/Jk	16a-\Jk	.	16A-/Jk 16AA-/	.	16a-/Jk	.	16a-/Jk	16a-\Jk	.	16a-\Jk	.	16a-/Jk	.	16a-/Jk	.	16aa-\Jk	.
*	*	*	*	*	*	*	*	*	*	*	*	*	*	*	*	*	*	*	*	*	*	*	*v	*v	*	*	*	*	*	*	*	*	*	*	*	*	*	*	*	*
=11	=11	=11	=11	=11	=11	=11	=11	=11	=11	=11	=11	=11	=11	=11	=11	=11	=11	=11	=11	=11	=11	=11	=11	=11	=11	=11	=11	=11	=11	=11	=11	=11	=11	=11	=11	=11	=11	=11	=11
!	!	!	!	!	!	!	!	!	!	!	!	!	!	!LO:DY:rj	!	!	!	!	!	!	!	!	!	!	!	!	!	!	!	!	!	!	!	!	!	!	!	!	!
4D-\	.	4D-\yy	.	4D-\	lux	4a-\ 4f\	lux	.	4d-\	.	4ff\ 4dd-\	.	4aa-\	f	4D-\	4f\ 4A-\	.	1ryy	2r	.	4ff\	.	4a-/ 4f/	.	4D-/ 4DD-/	.	4aa-\ 4ff\	.	4ff/	4dd-X\	.	4aa-\ 4a-\	.	4aa-\ 4ff\	.	4aa-\	.	4fff\	.
8.G-\L	.	8.G-\Lyy	.	4G-\	per-	4g-\ 4e-\	per-	.	8.b-\L 8.g-\	.	8.ee-\L	.	8.gg-\L	.	8.G-\L	8.e-\L 8.B-\	.	.	.	.	8.ee-\L	.	8.g-/L 8.e-/	.	8.G-/L 8.GG-/	.	8.gg-\L 8.ee-\	.	8.ee-/L	8.ee-\L	.	8.gg-\L 8.b-\	.	8.gg-\L 8.ee-\	.	8.gg-\L	.	8.eee-\L	.
16G-\Jk	.	16G-\Jkyy	.	.	.	.	.	.	16b-\Jk 16g-\	.	16ee-\Jk	.	16gg-\Jk	.	16G-\Jk	16e-\Jk 16B-\	.	.	.	.	16ee-\Jk	.	16g-/Jk 16e-/	.	16G-/Jk 16GG-/	.	16gg-\Jk 16ee-\	.	16ee-/Jk	16ee-\Jk	.	16gg-\Jk 16b-\	.	16gg-\Jk 16ee-\	.	16gg-\Jk	.	16eee-\Jk	.
4A-\	.	4A-\yy	.	4A-\	-pe-	4f\ 4d-\	-pe-	.	4a-\	.	4dd-\	.	4ff\	.	4A-\	4f\ 4d-\	.	.	4r	.	4r	.	4f/ 4d-/	.	4A-/ 4AA-/	.	4ff\	.	4ff\ 4dd-\	2rByy	.	4ff\ 4dd-\	.	4ff\ 4dd-\	.	4ff\	.	4ddd-\	.
!	!	!	!	!	!	!	!	!	!	!	!	!	!	!	!	!	!	!	!LO:TX:a:i:t=Timpani	!	!LO:TX:a:i:t=Trombe	!	!	!	!	!	!	!	!	!	!	!	!	!	!	!	!	!	!
8.An\L	.	8.An\Lyy	.	8.An\	-tu-	8.e-\ 8.c\	-tu-	.	8.f\L	.	8.cc\L	.	8.ee-\L	.	8.An\L	8.f\L 8.c\	.	.	8.F\L	.	8.cc\L	.	8.e-/L 8.c/	.	8.An\L 8.AAn\	.	8.ff\L	.	8.ee-\L 8.cc\	.	.	8.ee-\L 8.cc\	.	8.ee-\L 8.cc\	.	8.ee-\L	.	8.ccc\L	.
16A\Jk	.	16A\Jkyy	.	16A\	-a	16e-\ 16c\	-a	.	16f\Jk	.	16cc\Jk	.	16ee-\Jk	.	16A\Jk	16f\Jk 16c\	.	.	16F\Jk	.	16cc\Jk	.	16e-/Jk 16c/	.	16A\Jk 16AA\	.	16ff\Jk	.	16ee-\Jk 16cc\	.	.	16ee-\Jk 16cc\	.	16ee-\Jk 16cc\	.	16ee-\Jk	.	16ccc\Jk	.
=12	=12	=12	=12	=12	=12	=12	=12	=12	=12	=12	=12	=12	=12	=12	=12	=12	=12	=12	=12	=12	=12	=12	=12	=12	=12	=12	=12	=12	=12	=12	=12	=12	=12	=12	=12	=12	=12	=12	=12
*	*	*	*	*	*	*^	*	*	*	*	*	*	*	*	*	*^	*	*	*	*	*	*	*^	*	*^	*	*^	*	*	*	*	*^	*	*^	*	*	*	*	*
4B-\	.	4B-\yy	.	4B-\	lu-	4d-\ 4B-\	2.rBByy	lu-	.	4f\	.	4b-\	.	4dd-\	.	4B-\	4f\ 4d-\	2rBByy	.	1ryy	4BB-/	.	4b-\	.	4d-/ 4B-/	4rcyy	.	4B-\ 4BB-\	2.rEEyy	.	4ff/	4b-\	.	4dd-X/	4b-\	.	4dd-\ 4b-\	2rByy	.	4dd-\ 4b-\	2rcyy	.	4dd-\	.	4bb-\	.
8.F\L	.	8.F\Lyy	.	8.F\	-cet-	8.c\ 8.An\	.	-ce-	.	8.f\L 8.c\	.	8.an/L	.	8.cc\L	.	8.F\L	8.f\L 8.c\	.	.	.	8.F\L	.	8.f/L	.	8.an/L 8.f/	8.f\L	.	8.F/L 8.FF/	.	.	8.ff\L	4reyy	.	8.cc/L 8.f/	4rByy	.	8.cc\L 8.a\	.	.	8.cc\L 8.an\	.	.	8.cc\L	.	8.aan\L	.
16F\Jk	.	16F\Jkyy	.	16F\	-at	16c\ 16A\	.	-at	.	16f\Jk 16c\	.	16a/Jk	.	16cc\Jk	.	16F\Jk	16e-\Jk 16c\	.	.	.	16F\Jk	.	16f/Jk	.	16a/Jk 16e-/	16e-\Jk	.	16F/Jk 16FF/	.	.	16ff\Jk	.	.	16cc/Jk 16f/	.	.	16cc\Jk 16a\	.	.	16cc\Jk 16a\	.	.	16cc\Jk	.	16aa\Jk	.
4G-\	.	4G-\yy	.	(4G-\	e-	(4B-\	.	e-	.	4g-\ 4B-\	.	4b-/	.	4b-/	.	4G-\	4d-/	4B-\	.	.	4BB-/	.	4b-\	.	4b-/ 4d-/	2rcyy	.	4G-/ 4GG-/	.	.	4b-/	4b-\	.	4b-/	4b-\	p	4b-/	4b-\	.	4b-/	4b-\	.	4b-\	.	4bb-\	.
!	!LO:DY:rj	!	!LO:DY:rj	!	!	!	!	!	!	!	!	!	!	!	!LO:DY:rj	!	!	!	!	!	!	!	!	!	!	!	!	!	!	!LO:DY:rj	!	!	!	!	!	!	!	!	!	!	!	!	!	!	!	!
8.E-\L	p	8.c\L	p	4E-\)	.	8.c/L	4G-\	-[[is]]-	.	8.e-\L	.	8.g-/L	.	8.cc/L	p	4r	4r	4rBByy	.	.	4r	.	4r	.	4r	.	.	8.G-/L	8.E-\L	p	4rff	4reyy	.	8.cc/L	8.cc\L	.	4r	4rByy	.	4r	4rcyy	.	4r	.	4r	.
16E-\Jk	.	16G-\Jk	.	.	.	16G-/Jk)	.	.	.	16e-\Jk	.	16g-/Jk	.	16g-/Jk	.	.	.	.	.	.	.	.	.	.	.	.	.	16c/Jk	16E-\Jk	.	.	.	.	16cc/Jk	16cc\Jk	.	.	.	.	.	.	.	.	.	.	.
*	*	*	*	*	*	*	*	*	*	*	*	*	*	*	*	*	*	*	*	*	*	*	*	*	*	*	*	*	*	*	*	*	*	*	*	*	*v	*v	*	*	*	*	*	*	*	*
*	*	*	*	*	*	*	*	*	*	*	*	*	*	*	*	*	*v	*v	*	*	*	*	*	*	*v	*v	*	*	*	*	*v	*v	*	*	*	*	*	*	*v	*v	*	*	*	*	*
=13	=13	=13	=13	=13	=13	=13	=13	=13	=13	=13	=13	=13	=13	=13	=13	=13	=13	=13	=13	=13	=13	=13	=13	=13	=13	=13	=13	=13	=13	=13	=13	=13	=13	=13	=13	=13	=13	=13	=13	=13	=13
4F\	.	4F\	.	4F\	-is	4F/	4F\	[[Re-	-is	4d-\	.	4f/	.	4f/	.	1r	1r	.	1ryy	1r	.	1r	.	1r	.	4B-/	4F\	.	1r	.	4dd-X/	4b-\	.	1r	.	1r	.	1r	.	1r	.
*	*	*	*	*	*	*	*	*	*above	*	*	*	*	*	*	*	*	*	*	*	*	*	*	*	*	*	*	*	*	*	*	*	*	*	*	*	*	*	*	*	*
4r	.	8.B-|\L	.	4r	.	8.B-/L	4rF	-qui-	Re-	4r	.	4r	.	8.b-/L	.	.	.	.	.	.	.	.	.	.	.	4rF	4rEEyy	.	.	.	4rcc	4rByy	.	.	.	.	.	.	.	.	.
.	.	16c|\Jk	.	.	.	16c/J	.	.	-qui-	.	.	.	.	16cc/Jk	.	.	.	.	.	.	.	.	.	.	.	.	.	.	.	.	.	.	.	.	.	.	.	.	.	.	.
4F\	.	4d-\	.	8.F\	Re-	4d-/	8.F\	-em]]	-em	4B-/	.	4f/	.	4dd-\	.	.	.	.	.	.	.	.	.	.	.	4f/	4F\	.	.	.	4dd-/	4b-\	.	.	.	.	.	.	.	.	.
*	*	*	*	*	*	*	*	*	*below	*	*	*	*	*	*	*	*	*	*	*	*	*	*	*	*	*	*	*	*	*	*	*	*	*	*	*	*	*	*	*	*
.	.	.	.	16F\	-qui-	.	16F\	.	.	.	.	.	.	.	.	.	.	.	.	.	.	.	.	.	.	.	.	.	.	.	.	.	.	.	.	.	.	.	.	.	.
4FF/	.	(4Ant\	.	8FF/	-em	4An/	8E-\	ae	.	4c\	.	4e-/	.	4ant/	.	.	.	.	.	.	.	.	.	.	.	4e-/	4FF/	.	.	.	4cc/ 4f/	4rByy	.	.	.	.	.	.	.	.	.
.	.	.	.	8FF/	ae	.	8E-\	.	.	.	.	.	.	.	.	.	.	.	.	.	.	.	.	.	.	.	.	.	.	.	.	.	.	.	.	.	.	.	.	.	.
*	*	*	*	*	*	*v	*v	*	*	*	*	*	*	*	*	*	*	*	*	*	*	*	*	*	*	*	*	*	*	*	*v	*v	*	*	*	*	*	*	*	*	*
.	.	16qqGn/LL	.	.	.	.	.	.	.	.	.	.	(16qqgn/LL	.	.	.	.	.	.	.	.	.	.	.	.	.	.	.	.	.	.	.	.	.	.	.	.	.	.
.	.	16qqA/JJ)	.	.	.	.	.	.	.	.	.	.	16qqa/JJ)	.	.	.	.	.	.	.	.	.	.	.	.	.	.	.	.	.	.	.	.	.	.	.	.	.	.
=14	=14	=14	=14	=14	=14	=14	=14	=14	=14	=14	=14	=14	=14	=14	=14	=14	=14	=14	=14	=14	=14	=14	=14	=14	=14	=14	=14	=14	=14	=14	=14	=14	=14	=14	=14	=14	=14	=14	=14
4BB-/	.	4B-\	.	2.ryy	.	2.ryy	.	.	4B-/	.	4d-/	.	4b-\	.	4r	4r	.	2.ryy	4r	.	4r	.	4r	.	4d-/	4BB-\	.	4r	.	4b-/ 4d-X/	.	4r	.	4r	.	4r	.	4r	.
!	!LO:DY:rj	!	!LO:DY:rj	!	!	!	!	!	!	!	!	!LO:DY:rj	!	!LO:DY:rj	!	!	!LO:DY:rj	!	!	!	!	!	!	!	!	!	!LO:DY:rj	!	!	!	!LO:DY:rj	!	!	!	!	!	!	!	!
8.BB-/L	f	8.BB-/L	f	.	.	.	.	.	8.f\L 8.B-\	.	8.dd-/L 8.f/	f	8.bb-\L 8.b-\	f	8.B-\L 8.BB-\	8.d-/L 8.F/	f	.	8.BB-/L	.	8.B-/L	.	8.b-/L 8.d-/	.	8.B-\L 8.BB-\	4rEEyy	f	8.ff/L 8.b-/	.	8.b-/L 8.d-/	f	8.ff\L 8.b-\	.	8.bb-\L 8.dd-\	.	8.bb-\L	.	8.bb-\L	.
16BB-/Jk	.	16BB-/Jk	.	.	.	.	.	.	16f\Jk 16B-\	.	16dd-/Jk 16f/	.	16bb-\Jk 16b-\	.	16B-\Jk 16BB-\	16d-/Jk 16F/	.	.	16BB-/Jk	.	16B-/Jk	.	16b-/Jk 16d-/	.	16B-\Jk 16BB-\	.	.	16ff/Jk 16b-/	.	16b-/Jk 16d-/	.	16ff\Jk 16b-\	.	16bb-\Jk 16dd-\	.	16bb-\Jk	.	16bb-\Jk	.
4BB-/	.	4BB-/	.	.	.	.	.	.	4f\ 4B-\	.	4dd-/ 4f/	.	4bb-\ 4b-\	.	4B-\ 4BB-\	4d-/ 4F/	.	.	4BB-/	.	4B-/	.	4b-/ 4d-/	.	4B-\ 4BB-\	4rEEyy	.	4ff/ 4b-/	.	4b-/ 4d-/	.	4ff\ 4b-\	.	4bb-\ 4dd-\	.	4bb-\	.	4bb-\	.
*	*	*	*	*	*	*	*	*	*	*	*	*	*	*	*	*	*	*	*	*	*	*	*	*	*v	*v	*	*	*	*	*	*	*	*	*	*	*	*	*
!!LO:PB:g=original
=:|!|:	=:|!|:	=:|!|:	=:|!|:	=:|!|:	=:|!|:	=:|!|:	=:|!|:	=:|!|:	=:|!|:	=:|!|:	=:|!|:	=:|!|:	=:|!|:	=:|!|:	=:|!|:	=:|!|:	=:|!|:	=:|!|:	=:|!|:	=:|!|:	=:|!|:	=:|!|:	=:|!|:	=:|!|:	=:|!|:	=:|!|:	=:|!|:	=:|!|:	=:|!|:	=:|!|:	=:|!|:	=:|!|:	=:|!|:	=:|!|:	=:|!|:	=:|!|:	=:|!|:	=:|!|:
*k[b-e-]	*	*k[b-e-]	*	*k[b-e-]	*	*k[b-e-]	*	*	*k[b-e-]	*	*k[b-e-]	*	*k[b-e-]	*	*k[b-e-]	*k[b-e-]	*	*k[b-e-]	*k[b-e-]	*	*k[b-e-]	*	*k[b-e-]	*	*k[b-e-]	*	*k[b-e-]	*	*k[b-e-]	*	*k[b-e-]	*	*k[b-e-]	*	*k[b-e-]	*	*k[b-e-]	*
*B-:	*	*B-:	*	*B-:	*	*B-:	*	*	*B-:	*	*B-:	*	*B-:	*	*B-:	*B-:	*	*B-:	*B-:	*	*B-:	*	*B-:	*	*B-:	*	*B-:	*	*B-:	*	*B-:	*	*B-:	*	*B-:	*	*B-:	*
*	*	*	*	*	*	*	*	*	*	*	*^	*	*	*	*	*	*	*	*	*	*	*	*	*	*	*	*	*	*	*	*	*	*	*	*	*	*^	*
!	!	!	!	!	!	!	!	!	!	!LO:DY:rj	!	!	!	!LO:TX:a:t=divisi	!LO:DY:rj	!	!	!LO:DY:rj	!	!	!	!	!LO:DY:rj	!	!	!	!LO:DY:rj	!	!LO:DY:rj	!	!	!	!LO:DY:rj	!	!	!	!	!LO:TX:a:B:t=Trio.	!	!LO:DY:rj
8.F\L	ff	4r	.	4F\	Te	4F/	.	.	8.f\L	ff	8.ff/L	8.f/L	.	8.ff/L 8.f/	ff	8.F\L	8.F/L	ff	4ryy	8.F\L	.	8.f/L	ff	8.f/L	.	8.F\L	ff	8.ff\L	ff	8.f/L	.	8.f/L	ff	8.ff\L	.	8.ff\L	.	4gg/	8.ff\L	ff
16F\Jk	.	.	.	.	.	.	.	.	16f\Jk	.	16ff/Jk	16f/Jk	.	16ff/Jk 16f/	.	16F\Jk	16F/Jk	.	.	16F\Jk	.	16f/Jk	.	16f/Jk	.	16F\Jk	.	16ff\Jk	.	16f/Jk	.	16f/Jk	.	16ff\Jk	.	16ff\Jk	.	.	16ff\Jk	.
*	*	*	*	*	*	*	*	*	*	*	*v	*v	*	*	*	*	*	*	*	*	*	*	*	*	*	*	*	*	*	*	*	*	*	*	*	*	*	*v	*v	*
=15	=15	=15	=15	=15	=15	=15	=15	=15	=15	=15	=15	=15	=15	=15	=15	=15	=15	=15	=15	=15	=15	=15	=15	=15	=15	=15	=15	=15	=15	=15	=15	=15	=15	=15	=15	=15	=15	=15
*	*	*	*	*	*	*^	*	*	*	*	*	*	*	*	*	*	*	*	*	*	*	*	*^	*	*	*	*	*	*^	*	*^	*	*	*	*	*	*	*
!LO:TX:t=P:problem:na dole strony widoczne pozostałości odciętej partii perkusyjnej.	!	!	!	!	!	!	!	!	!	!	!	!	!	!	!	!	!	!	!	!	!	!	!	!	!	!	!	!	!	!	!	!	!	!	!	!	!	!	!LO:TX:a:t=Col Fl.	!	!	!
*	*	*	*	*	*	*	*	*	*	*2\right	*	*2\right	*	*2\right	*	*	*	*	*	*	*	*	*	*	*	*	*	*	*	*	*	*	*	*	*	*	*	*	*	*	*	*
*	*	*	*	*	*	*	*	*	*	*tremolo	*	*tremolo	*	*tremolo	*	*	*2\right	*	*	*tremolo	*	*	*	*	*2\right	*	*	*	*	*	*	*2\right	*	*2\right	*2\right	*	*2\right	*	*	*	*2\right	*
8.BB-/L	.	1r	.	2BB-/	de-	2d/ 2F/	2.rBByy	.	.	32f\LLL 32B-\	.	32bb-\LLL 32b-\	.	32ddd\LLL 32dd\	.	8.BB-/L	(2d\ 2B-\	.	1ryy	32BB-/LLL	.	8B-/L	.	2dd/	2b-\	.	8.BB-/L	.	[2ff/ [2b-/	.	(2dd/	(2b-\	.	(<2ddtt/	2b-\	.	(<2bb-TT\	.	(y<2dddt\yy	.	(<2dddt\	.
.	.	.	.	.	.	.	.	.	.	32f\ 32B-\	.	32bb-\ 32b-\	.	32ddd\ 32dd\	.	.	.	.	.	32BB-/	.	.	.	.	.	.	.	.	.	.	.	.	.	.	.	.	.	.	.	.	.	.
.	.	.	.	.	.	.	.	.	.	32f\ 32B-\	.	32bb-\ 32b-\	.	32ddd\ 32dd\	.	.	.	.	.	32BB-/	.	.	.	.	.	.	.	.	.	.	.	.	.	.	.	.	.	.	.	.	.	.
.	.	.	.	.	.	.	.	.	.	32f\ 32B-\	.	32bb-\ 32b-\	.	32ddd\ 32dd\	.	.	.	.	.	32BB-/	.	.	.	.	.	.	.	.	.	.	.	.	.	.	.	.	.	.	.	.	.	.
.	.	.	.	.	.	.	.	.	.	32f\ 32B-\	.	32bb-\ 32b-\	.	32ddd\ 32dd\	.	.	.	.	.	32BB-/	.	16B-/L	.	.	.	.	.	.	.	.	.	.	.	.	.	.	.	.	.	.	.	.
.	.	.	.	.	.	.	.	.	.	32f\ 32B-\	.	32bb-\ 32b-\	.	32ddd\ 32dd\	.	.	.	.	.	32BB-/	.	.	.	.	.	.	.	.	.	.	.	.	.	.	.	.	.	.	.	.	.	.
16BB-/K	.	.	.	.	.	.	.	.	.	32f\ 32B-\	.	32bb-\ 32b-\	.	32ddd\ 32dd\	.	16BB-/K	.	.	.	32BB-/	.	16B-/J	.	.	.	.	16BB-/K	.	.	.	.	.	.	.	.	.	.	.	.	.	.	.
.	.	.	.	.	.	.	.	.	.	32f\ 32B-\	.	32bb-\ 32b-\	.	32ddd\ 32dd\	.	.	.	.	.	32BB-/	.	.	.	.	.	.	.	.	.	.	.	.	.	.	.	.	.	.	.	.	.	.
8.D/	.	.	.	.	.	.	.	.	.	32f\ 32B-\	.	32bb-\ 32b-\	.	32ddd\ 32dd\	.	8.D/	.	.	.	32BB-/	.	8.d/	.	.	.	.	8.D/	.	.	.	.	.	.	.	.	.	.	.	.	.	.	.
.	.	.	.	.	.	.	.	.	.	32f\ 32B-\	.	32bb-\ 32b-\	.	32ddd\ 32dd\	.	.	.	.	.	32BB-/	.	.	.	.	.	.	.	.	.	.	.	.	.	.	.	.	.	.	.	.	.	.
.	.	.	.	.	.	.	.	.	.	32f\ 32B-\	.	32bb-\ 32b-\	.	32ddd\ 32dd\	.	.	.	.	.	32BB-/	.	.	.	.	.	.	.	.	.	.	.	.	.	.	.	.	.	.	.	.	.	.
.	.	.	.	.	.	.	.	.	.	32f\ 32B-\	.	32bb-\ 32b-\	.	32ddd\ 32dd\	.	.	.	.	.	32BB-/	.	.	.	.	.	.	.	.	.	.	.	.	.	.	.	.	.	.	.	.	.	.
.	.	.	.	.	.	.	.	.	.	32f\ 32B-\	.	32bb-\ 32b-\	.	32ddd\ 32dd\	.	.	.	.	.	32BB-/	.	.	.	.	.	.	.	.	.	.	.	.	.	.	.	.	.	.	.	.	.	.
.	.	.	.	.	.	.	.	.	.	32f\ 32B-\	.	32bb-\ 32b-\	.	32ddd\ 32dd\	.	.	.	.	.	32BB-/	.	.	.	.	.	.	.	.	.	.	.	.	.	.	.	.	.	.	.	.	.	.
16F/Jk	.	.	.	.	.	.	.	.	.	32f\ 32B-\	.	32bb-\ 32b-\	.	32ddd\ 32dd\	.	16F/Jk	.	.	.	32BB-/	.	16f/Jk	.	.	.	.	16F/Jk	.	.	.	.	.	.	.	.	.	.	.	.	.	.	.
.	.	.	.	.	.	.	.	.	.	32f\JJJ 32B-\	.	32bb-\JJJ 32b-\	.	32ddd\JJJ 32dd\	.	.	.	.	.	32BB-/JJJ	.	.	.	.	.	.	.	.	.	.	.	.	.	.	.	.	.	.	.	.	.	.
.	.	.	.	.	.	.	.	.	.	.	.	.	.	.	.	.	.	.	.	.	.	.	.	.	.	.	.	.	.	.	.	.	.	16qqcc/LL 16qqa/	.	.	16qqaa/LL	.	16qqccc/LLyy	.	16qqccc/LL	.
.	.	.	.	.	.	.	.	.	.	.	.	.	.	.	.	.	.	.	.	.	.	.	.	.	.	.	.	.	.	.	.	.	.	16qqdd/JJ 16qqb-/)	.	.	16qqbb-/JJ)	.	16qqddd/JJ)yy	.	16qqddd/JJ)	.
*	*	*	*	*	*	*	*	*	*	*Xtremolo	*	*Xtremolo	*	*Xtremolo	*	*	*	*	*	*Xtremolo	*	*	*	*	*	*	*	*	*	*	*	*	*	*	*	*	*	*	*	*	*	*
8.B-\L	.	.	.	8.BB-/	-cet	8.B-/ 8.D/	.	.	.	8.d\L 8.B-\	.	8.ff\L 8.f\	.	8.bb-\L 8.b-\	.	8.B-\L	8.B-/L 8.F/)	.	.	4BB-/	.	8.b-/L	.	8.b-/L 8.f/	2rcyy	.	8.B-\L	.	8.ff/]L 8.b-/]	.	8.b-/L 8.d/))	2rByy	.	8.b-/L 8.f/	2rByy	.	8.ff\L	.	8.bb-\Lyy	.	8.bb-\L	.
16B-\K	.	.	.	16B-\	Te	16F/ 16D/	.	.	.	16f\K 16B-\	.	16dd\K 16d\	.	16ff\K 16f\	.	16B-\K	16F/K 16D|/	.	.	.	.	16b-/K	.	16f/K 16d/	.	.	16B-\K	.	16ff/K 16b-/	.	16f/K 16d/	.	.	16f/K 16d|/	.	.	16dd\K 16b-|\	.	16ff|\Kyy	.	16ff|\K	.
8.F\	.	.	.	8.F\	de-	8.B-/ 8.F/	8.rBByy	.	.	8.d\ 8.B-\	.	8.ff\ 8.f\	.	8.bb-\ 8.b-\	.	8.F\	8.B-/ 8.F|/	.	.	4r	.	8.f/	.	8.b-/ 8.f/	.	.	8.F\	.	8.ff/ 8.b-/	.	8.b-/ 8.f/	.	.	8.b-/ 8.f|/	.	.	8.ff\ 8.dd|\	.	8.bb-|\yy	.	8.bb-|\	.
16D\Jk	.	.	.	16D\	-cet	16d/	16B-\	.	.	16f\Jk 16B-\	.	16bb-\Jk 16b-\	.	16ddd\Jk 16dd\	.	16D\Jk	16d/Jk 16B-|/	.	.	.	.	16d/Jk	.	16dd/Jk 16b-/	.	.	16D\Jk	.	16ff/Jk 16b-/	.	16dd/Jk 16b-/	.	.	16dd/Jk 16b-|/	.	.	16bb-\Jk 16ff|\	.	16ddd|\Jkyy	.	16ddd|\Jk	.
*	*	*	*	*	*	*v	*v	*	*	*	*	*	*	*	*	*	*	*	*	*	*	*	*	*v	*v	*	*	*	*	*	*	*	*	*	*	*	*	*	*	*	*	*
!!LO:PB:g=original
=16	=16	=16	=16	=16	=16	=16	=16	=16	=16	=16	=16	=16	=16	=16	=16	=16	=16	=16	=16	=16	=16	=16	=16	=16	=16	=16	=16	=16	=16	=16	=16	=16	=16	=16	=16	=16	=16	=16	=16	=16
*	*	*	*	*	*	*	*	*	*	*	*	*	*	*	*	*	*	*	*	*	*	*	*	*	*	*	*	*	*	*	*	*	*	*	*^	*	*	*	*	*
!	!	!	!	!	!	!	!	!	!	!	!	!	!	!	!	!	!	!	!	!	!	!	!	!	!	!	!	!	!LO:S:s=2:note:problem:note-level slur	!	!	!	!	!	!	!	!	!	!	!	!
*	*	*	*	*	*	*	*	*	*tremolo	*	*tremolo	*	*tremolo	*	*	*	*	*	*tremolo	*	*	*	*	*	*	*	*	*	*	*	*	*	*	*	*	*	*	*	*	*	*
!	!	!	!	!	!	!	!	!	!	!	!	!	!	!	!	!LO:S:s=2:note:problem:note-level slur	!	!	!	!	!	!	!	!	!	!	!	!	!	!	!	!	!	!	!	!	!	!	!	!	!
8.BB-/L	.	1r	.	2BB-/	hym-	2f\ 2d\	.	.	32b-\LLL 32d\	.	32ddd\LLL 32dd\	.	32fff\LLL 32ff\	.	8.BB-/L	(>(>2f\ 2d\	.	1ryy	32BB-/LLL	.	8B-/L	.	2ff\ 2dd\	.	8.BB-/L	.	[2ff/ [2b-/	.	((2ff\ 2dd\	2rByy	.	2ffTT/	2dd\	.	(2dddtt/	2bb-\	.	2fffT\yy	.	2fffT\	.
.	.	.	.	.	.	.	.	.	32b-\ 32d\	.	32ddd\ 32dd\	.	32fff\ 32ff\	.	.	.	.	.	32BB-/	.	.	.	.	.	.	.	.	.	.	.	.	.	.	.	.	.	.	.	.	.	.
.	.	.	.	.	.	.	.	.	32b-\ 32d\	.	32ddd\ 32dd\	.	32fff\ 32ff\	.	.	.	.	.	32BB-/	.	.	.	.	.	.	.	.	.	.	.	.	.	.	.	.	.	.	.	.	.	.
.	.	.	.	.	.	.	.	.	32b-\ 32d\	.	32ddd\ 32dd\	.	32fff\ 32ff\	.	.	.	.	.	32BB-/	.	.	.	.	.	.	.	.	.	.	.	.	.	.	.	.	.	.	.	.	.	.
.	.	.	.	.	.	.	.	.	32b-\ 32d\	.	32ddd\ 32dd\	.	32fff\ 32ff\	.	.	.	.	.	32BB-/	.	16B-/L	.	.	.	.	.	.	.	.	.	.	.	.	.	.	.	.	.	.	.	.
.	.	.	.	.	.	.	.	.	32b-\ 32d\	.	32ddd\ 32dd\	.	32fff\ 32ff\	.	.	.	.	.	32BB-/	.	.	.	.	.	.	.	.	.	.	.	.	.	.	.	.	.	.	.	.	.	.
16BB-/K	.	.	.	.	.	.	.	.	32b-\ 32d\	.	32ddd\ 32dd\	.	32fff\ 32ff\	.	16BB-/K	.	.	.	32BB-/	.	16B-/J	.	.	.	16BB-/K	.	.	.	.	.	.	.	.	.	.	.	.	.	.	.	.
.	.	.	.	.	.	.	.	.	32b-\ 32d\	.	32ddd\ 32dd\	.	32fff\ 32ff\	.	.	.	.	.	32BB-/	.	.	.	.	.	.	.	.	.	.	.	.	.	.	.	.	.	.	.	.	.	.
8.D/	.	.	.	.	.	.	.	.	32b-\ 32d\	.	32ddd\ 32dd\	.	32fff\ 32ff\	.	8.D/	.	.	.	32BB-/	.	8.d/	.	.	.	8.D/	.	.	.	.	.	.	.	.	.	.	.	.	.	.	.	.
.	.	.	.	.	.	.	.	.	32b-\ 32d\	.	32ddd\ 32dd\	.	32fff\ 32ff\	.	.	.	.	.	32BB-/	.	.	.	.	.	.	.	.	.	.	.	.	.	.	.	.	.	.	.	.	.	.
.	.	.	.	.	.	.	.	.	32b-\ 32d\	.	32ddd\ 32dd\	.	32fff\ 32ff\	.	.	.	.	.	32BB-/	.	.	.	.	.	.	.	.	.	.	.	.	.	.	.	.	.	.	.	.	.	.
.	.	.	.	.	.	.	.	.	32b-\ 32d\	.	32ddd\ 32dd\	.	32fff\ 32ff\	.	.	.	.	.	32BB-/	.	.	.	.	.	.	.	.	.	.	.	.	.	.	.	.	.	.	.	.	.	.
.	.	.	.	.	.	.	.	.	32b-\ 32d\	.	32ddd\ 32dd\	.	32fff\ 32ff\	.	.	.	.	.	32BB-/	.	.	.	.	.	.	.	.	.	.	.	.	.	.	.	.	.	.	.	.	.	.
.	.	.	.	.	.	.	.	.	32b-\ 32d\	.	32ddd\ 32dd\	.	32fff\ 32ff\	.	.	.	.	.	32BB-/	.	.	.	.	.	.	.	.	.	.	.	.	.	.	.	.	.	.	.	.	.	.
16F/Jk	.	.	.	.	.	.	.	.	32b-\ 32d\	.	32ddd\ 32dd\	.	32fff\ 32ff\	.	16F/Jk	.	.	.	32BB-/	.	16f/Jk	.	.	.	16F/Jk	.	.	.	.	.	.	.	.	.	.	.	.	.	.	.	.
.	.	.	.	.	.	.	.	.	32b-\JJJ 32d\	.	32ddd\JJJ 32dd\	.	32fff\JJJ 32ff\	.	.	.	.	.	32BB-/JJJ	.	.	.	.	.	.	.	.	.	.	.	.	.	.	.	.	.	.	.	.	.	.
.	.	.	.	.	.	.	.	.	.	.	.	.	.	.	.	.	.	.	.	.	.	.	.	.	.	.	.	.	.	.	.	16qqeeX/LL 16qqcc#X/	.	.	16qqccc#X/LL	.	.	(y16qqeeen/LLyy	.	(16qqeeen/LL	.
.	.	.	.	.	.	.	.	.	.	.	.	.	.	.	.	.	.	.	.	.	.	.	.	.	.	.	.	.	.	.	.	16qqff/JJ 16qqdd/	.	.	16qqddd/JJ	.	.	16qqfff/JJ)yy	.	16qqfff/JJ)	.
*	*	*	*	*	*	*	*	*	*Xtremolo	*	*Xtremolo	*	*Xtremolo	*	*	*	*	*	*Xtremolo	*	*	*	*	*	*	*	*	*	*	*	*	*	*	*	*	*	*	*	*	*	*
4B-\	.	.	.	4BB-/	-nus	4d\ 4B-\	.	.	4f/ 4B-/	.	4bb-\ 4b-\	.	4ddd\ 4dd\	.	4B-\	4d\ 4B-\))	.	.	4BB-/	.	4b-\	.	4dd\ 4b-\	.	4B-\	.	4ff/] 4b-/]	.	4dd/)	4b-\)	.	4dd\ 4b-\	2rByy	.	4bb-/)	4ff\	.	4ddd\yy	.	4ddd\	.
8.BB-/L	.	.	.	4BB-/	Te	4B-\	Te	.	8.B-/L	.	8.b-\L	.	8.b-\L	.	8.BB-/L	8.B-\L	.	.	4r	.	8.b-\L	.	8.b-\L	.	8.B-\L	.	8.b-/L	.	8.b-/L	8.b-\L	.	8.b-\L	.	.	8.b-\L	4rcyy	.	8.bb-\Lyy	.	8.bb-\L	.
16BB-/Jk	.	.	.	.	.	.	.	.	16B-/Jk	.	16b-\Jk	.	16b-\Jk	.	16BB-/Jk	16B-\Jk	.	.	.	.	16b-\Jk	.	16b-\Jk	.	16B-\Jk	.	16b-/Jk	.	16b-/Jk	16b-\Jk	.	16b-\Jk	.	.	16b-\Jk	.	.	16bb-\Jkyy	.	16bb-\Jk	.
=17	=17	=17	=17	=17	=17	=17	=17	=17	=17	=17	=17	=17	=17	=17	=17	=17	=17	=17	=17	=17	=17	=17	=17	=17	=17	=17	=17	=17	=17	=17	=17	=17	=17	=17	=17	=17	=17	=17	=17	=17	=17
*	*	*	*	*	*	*^	*	*	*	*	*	*	*	*	*	*^	*	*	*	*	*	*	*^	*	*	*	*^	*	*	*	*	*	*	*	*	*	*	*	*	*	*
4E-\	.	1r	.	8E-\	de-	8g\ 8B-\	2rBByy	[[de-	.	4e-\	.	4ee-\ 4g\ 4B-\	.	4gg\ 4b-\ 4e-\	.	4E-\	4g\ 4B-\	2rBByy	.	1ryy	2r	.	4ee-\	.	4gg\ 4b-\	2rcyy	.	4e-\ 4E-\	.	4gg/	4ee-\	.	4ee-/	4b-\	.	4gg\ 4b-\	2rByy	.	4gg\ 4ee-\	2rcyy	.	4ggg\yy	.	4ggg\	.
.	.	.	.	8E-\	-cet	8g\ 8B-\	.	-cet	.	.	.	.	.	.	.	.	.	.	.	.	.	.	.	.	.	.	.	.	.	.	.	.	.	.	.	.	.	.	.	.	.	.	.	.	.
8.D\L	.	.	.	8.D\	hym-	8.f\ 8.B-\	.	.	.	8.d\L	.	8.b-/L 8.f/	.	8.ff\L 8.b-\	.	8.D\L	8.f\L 8.B-\	.	.	.	.	.	8.dd\L	.	8.ff\L 8.b-\	.	.	8.d\L 8.D\	.	8.ff/L	8.ff\L	.	8.dd/L	8.b-\L	.	8.ff\L 8.b-\	.	.	8.bb-\L 8.ff\	.	.	8.fff\Lyy	.	8.fff\L	.
16D\Jk	.	.	.	16D\	-nus	16f\ 16B-\	.	.	.	16d\Jk	.	16b-/Jk 16f/	.	16ff\Jk 16b-\	.	16D\Jk	16f\Jk 16B-\	.	.	.	.	.	16dd\Jk	.	16ff\Jk 16b-\	.	.	16d\Jk 16D\	.	16ff/Jk	16ff\Jk	.	16dd/Jk	16b-\Jk	.	16ff\Jk 16b-\	.	.	16bb-\Jk 16ff\	.	.	16fff\Jkyy	.	16fff\Jk	.
4C/	.	.	.	4C/	De-	4e-/	8G\L	hym-	.	4c\	.	8g/L	.	4ee-\	.	4C/	4e-/	8G\L	.	.	4r	.	4cc\	.	4ee-/	8g\L	.	4c\ 4C\	.	4ee-/	4ee-\	.	4cc/	4cc\	.	4ee-/	8g\L	.	8gg/L	4ee-\	.	4eee-\yy	.	4eee-\	.
.	.	.	.	.	.	.	8A\J	.	.	.	.	8a/J	.	.	.	.	.	8A\J	.	.	.	.	.	.	.	8a\J	.	.	.	.	.	.	.	.	.	.	8a\J	.	8aa/J	.	.	.	.	.	.
8.BB-/L	.	.	.	8.BB-/	-us	8.d/	8.B-\	-nus]]	.	8.f\L 8.B-\	.	8.b-/L	.	8.dd\L	.	8.BB-/L	8.d/L	8.B-\L	.	.	8.BB-/L	.	8.b-\L	.	8.dd/L	8.b-\L	.	8.B-\L 8.BB-\	.	8.ff/L 8.b-/	4reyy	.	8.dd/L	8.b-\L	.	8.dd/L	8.b-\L	.	8.bb-\L 8.dd\	4rcyy	.	8.ddd\Lyy	.	8.ddd\L	.
16BB-/Jk	.	.	.	16BB-/	in	16d/	16B-\	.	.	16f\Jk 16B-\	.	16b-/Jk	.	16dd\Jk	.	16BB-/Jk	16d/Jk	16B-\Jk	.	.	16BB-/Jk	.	16b-\Jk	.	16dd/Jk	16b-\Jk	.	16B-\Jk 16BB-\	.	16ff/Jk 16b-/	.	.	16dd/Jk	16b-\Jk	.	16dd/Jk	16b-\Jk	.	16bb-\Jk 16dd\	.	.	16ddd\Jkyy	.	16ddd\Jk	.
*	*	*	*	*	*	*	*	*	*	*	*	*	*	*	*	*	*	*	*	*	*	*	*	*	*	*	*	*	*	*v	*v	*	*	*	*	*	*	*	*v	*v	*	*	*	*	*
*	*	*	*	*	*	*	*	*	*	*	*	*	*	*	*	*	*v	*v	*	*	*	*	*	*	*v	*v	*	*	*	*	*	*v	*v	*	*	*	*	*	*	*	*	*	*
=18	=18	=18	=18	=18	=18	=18	=18	=18	=18	=18	=18	=18	=18	=18	=18	=18	=18	=18	=18	=18	=18	=18	=18	=18	=18	=18	=18	=18	=18	=18	=18	=18	=18	=18	=18	=18	=18	=18	=18	=18
8.F\L	.	1r	.	2F\	si-	2c\ 2A\	2.ryy	.	.	8.f\L 8.A\	.	4a/	.	4cc\	.	8.F\L	4c\ 4A\	.	1ryy	4F\	.	8.ff\L	.	4cc\ 4a\	.	8.f\L 8.F\	.	4ff\	.	4cc/ 4f/	.	4cc/	4a\	.	4aa\ 4cc\	.	4ccc\yy	.	4ccc\	.
16F\K	.	.	.	.	.	.	.	.	.	16f\K	.	.	.	.	.	16F\K	.	.	.	.	.	16ff\K	.	.	.	16f\K 16F\	.	.	.	.	.	.	.	.	.	.	.	.	.	.
8.C\	.	.	.	.	.	.	.	.	.	8.c\	.	8.cc/L 8.f/	.	8.ff\L 8.a\	.	8.C\	8.f\L 8.A\	.	.	8.F\L	.	8.ff\	.	8.ff\L 8.a\	.	8.c\ 8.C\	.	8.ff\L	.	8.cc/L 8.f/	.	8.ff\L 8.a\	4rByy	.	8.aa\L 8.cc\	.	8.fff\Lyy	.	8.fff\L	.
16AA\Jk	.	.	.	.	.	.	.	.	.	16A\Jk	.	16cc/Jk 16f/	.	16ff\Jk 16a\	.	16AA\Jk	16f\Jk 16A\	.	.	16F\Jk	.	16ff\Jk	.	16ff\Jk 16a\	.	16A\Jk 16AA\	.	16ff\Jk	.	16cc/Jk 16f/	.	16ff\Jk 16a\	.	.	16aa\Jk 16cc\	.	16fff\Jkyy	.	16fff\Jk	.
4FF/	.	.	.	4F\	-on	4f\ 4A\	.	.	.	4F/	.	4cc/ 4f/	.	4ff\ 4a\	.	4FF/	4f\ 4A\	.	.	4F\	.	4ff\	.	4ff\ 4a\	.	4F/ 4FF/	.	4ff\	.	4cc/ 4f/	.	4ff\ 4a\	2rByy	.	4aa\ 4cc\	.	4fff\yy	.	4fff\	.
8.F\L	.	.	.	4F\	Et	4F/	4F\	.	.	8.f\L	.	8.ff\L 8.f\	.	8.ff\L 8.f\	.	8.D\L	8.F/L	.	.	8.F\L	.	8.f/L	.	8.f/L	.	8.F/L 8.FF/	.	8.ff\L	.	8.cc\L 8.f\	.	8.f/L	.	.	8.ff\L	.	8.ff\Lyy	.	8.ff\L	.
16F\Jk	.	.	.	.	.	.	.	.	.	16f\Jk	.	16ff\Jk 16f\	.	16ff\Jk 16f\	.	16D\Jk	16F/Jk	.	.	16F\Jk	.	16f/Jk	.	16f/Jk	.	16F/Jk 16FF/	.	16ff\Jk	.	16cc\Jk 16f\	.	16f/Jk	.	.	16ff\Jk	.	16ff\Jkyy	.	16ff\Jk	.
!!LO:PB:g=original
=19	=19	=19	=19	=19	=19	=19	=19	=19	=19	=19	=19	=19	=19	=19	=19	=19	=19	=19	=19	=19	=19	=19	=19	=19	=19	=19	=19	=19	=19	=19	=19	=19	=19	=19	=19	=19	=19	=19	=19	=19
*	*	*	*	*	*	*	*	*	*	*	*	*	*	*	*	*	*^	*	*	*	*	*	*	*^	*	*	*	*	*	*^	*	*	*	*	*	*	*	*	*	*
*	*	*	*	*	*	*	*	*	*	*tremolo	*	*tremolo	*	*tremolo	*	*	*	*	*	*	*tremolo	*	*	*	*	*	*	*	*	*	*	*	*	*	*	*	*	*	*	*2\right	*	*	*
8.BB-/L	.	1ryy	.	2BB-/	ti-	2d/	2B-\	.	.	32f\LLL 32B-\	.	32bb-\LLL 32b-\	.	32ddd\LLL 32dd\	.	8.BB-/L	(2d/	(>2B-\	.	1ryy	32BB-/LLL	.	8B-/L	.	(2dd/	(>2b-\	.	8.BB-/L	.	[2ff/ [2b-/	.	(2dd/	2b-\	.	(2ddt/	2b-\	.	2bb-T\	.	(2dddt<\	.	2dddt\	.
.	.	.	.	.	.	.	.	.	.	32f\ 32B-\	.	32bb-\ 32b-\	.	32ddd\ 32dd\	.	.	.	.	.	.	32BB-/	.	.	.	.	.	.	.	.	.	.	.	.	.	.	.	.	.	.	.	.	.	.
.	.	.	.	.	.	.	.	.	.	32f\ 32B-\	.	32bb-\ 32b-\	.	32ddd\ 32dd\	.	.	.	.	.	.	32BB-/	.	.	.	.	.	.	.	.	.	.	.	.	.	.	.	.	.	.	.	.	.	.
.	.	.	.	.	.	.	.	.	.	32f\ 32B-\	.	32bb-\ 32b-\	.	32ddd\ 32dd\	.	.	.	.	.	.	32BB-/	.	.	.	.	.	.	.	.	.	.	.	.	.	.	.	.	.	.	.	.	.	.
.	.	.	.	.	.	.	.	.	.	32f\ 32B-\	.	32bb-\ 32b-\	.	32ddd\ 32dd\	.	.	.	.	.	.	32BB-/	.	16B-/L	.	.	.	.	.	.	.	.	.	.	.	.	.	.	.	.	.	.	.	.
.	.	.	.	.	.	.	.	.	.	32f\ 32B-\	.	32bb-\ 32b-\	.	32ddd\ 32dd\	.	.	.	.	.	.	32BB-/	.	.	.	.	.	.	.	.	.	.	.	.	.	.	.	.	.	.	.	.	.	.
16BB-/K	.	.	.	.	.	.	.	.	.	32f\ 32B-\	.	32bb-\ 32b-\	.	32ddd\ 32dd\	.	16BB-/K	.	.	.	.	32BB-/	.	16B-/JJ	.	.	.	.	16BB-/K	.	.	.	.	.	.	.	.	.	.	.	.	.	.	.
.	.	.	.	.	.	.	.	.	.	32f\ 32B-\	.	32bb-\ 32b-\	.	32ddd\ 32dd\	.	.	.	.	.	.	32BB-/	.	.	.	.	.	.	.	.	.	.	.	.	.	.	.	.	.	.	.	.	.	.
8.D/	.	.	.	.	.	.	.	.	.	32f\ 32B-\	.	32bb-\ 32b-\	.	32ddd\ 32dd\	.	8.D/	.	.	.	.	32BB-/	.	8.d/L	.	.	.	.	8.D/	.	.	.	.	.	.	.	.	.	.	.	.	.	.	.
.	.	.	.	.	.	.	.	.	.	32f\ 32B-\	.	32bb-\ 32b-\	.	32ddd\ 32dd\	.	.	.	.	.	.	32BB-/	.	.	.	.	.	.	.	.	.	.	.	.	.	.	.	.	.	.	.	.	.	.
.	.	.	.	.	.	.	.	.	.	32f\ 32B-\	.	32bb-\ 32b-\	.	32ddd\ 32dd\	.	.	.	.	.	.	32BB-/	.	.	.	.	.	.	.	.	.	.	.	.	.	.	.	.	.	.	.	.	.	.
.	.	.	.	.	.	.	.	.	.	32f\ 32B-\	.	32bb-\ 32b-\	.	32ddd\ 32dd\	.	.	.	.	.	.	32BB-/	.	.	.	.	.	.	.	.	.	.	.	.	.	.	.	.	.	.	.	.	.	.
.	.	.	.	.	.	.	.	.	.	32f\ 32B-\	.	32bb-\ 32b-\	.	32ddd\ 32dd\	.	.	.	.	.	.	32BB-/	.	.	.	.	.	.	.	.	.	.	.	.	.	.	.	.	.	.	.	.	.	.
.	.	.	.	.	.	.	.	.	.	32f\ 32B-\	.	32bb-\ 32b-\	.	32ddd\ 32dd\	.	.	.	.	.	.	32BB-/	.	.	.	.	.	.	.	.	.	.	.	.	.	.	.	.	.	.	.	.	.	.
16F/Jk	.	.	.	.	.	.	.	.	.	32f\ 32B-\	.	32bb-\ 32b-\	.	32ddd\ 32dd\	.	16F/Jk	.	.	.	.	32BB-/	.	16f/Jk	.	.	.	.	16F/Jk	.	.	.	.	.	.	.	.	.	.	.	.	.	.	.
.	.	.	.	.	.	.	.	.	.	32f\JJJ 32B-\	.	32bb-\JJJ 32b-\	.	32ddd\JJJ 32dd\	.	.	.	.	.	.	32BB-/JJJ	.	.	.	.	.	.	.	.	.	.	.	.	.	.	.	.	.	.	.	.	.	.
.	.	.	.	.	.	.	.	.	.	.	.	.	.	.	.	.	.	.	.	.	.	.	.	.	.	.	.	.	.	.	.	.	.	.	16qqcc#X/LL 16qqa/	.	.	(>16qqaa/LL	.	(16qqccc#X/LL)	.	(>16qqccc#X/LL	.
.	.	.	.	.	.	.	.	.	.	.	.	.	.	.	.	.	.	.	.	.	.	.	.	.	.	.	.	.	.	.	.	.	.	.	16qqdd/JJ 16qqb-/)	.	.	16qqbb-/JJ	.	16qqddd/JJ)	.	16qqddd/JJ	.
*	*	*	*	*	*	*	*	*	*	*Xtremolo	*	*Xtremolo	*	*Xtremolo	*	*	*	*	*	*	*Xtremolo	*	*	*	*	*	*	*	*	*	*	*	*	*	*	*	*	*	*	*	*	*	*
8.B-\L	.	.	.	8.BB-/	-bi	8.B-/ 8.D/	2rBByy	.	.	8.d\L 8.B-\	.	8.ff\L 8.f\	.	8.bb-\L 8.b-\	.	8.B-\L	8.B-/L 8.F/))	2rBByy	.	.	4BB-/	.	8.b-\L	.	8.b-/L 8.f/))	2rcyy	.	8.B-\L	.	8.ff/]L 8.b-/]	.	8.b-/L 8.d/)	2rByy	.	8.b-/L 8.f/	2rByy	.	8.ff\L)	.	8.bb-\L	.	8.bb-\L)	.
16B-\K	.	.	.	16B-\	red-	16F/ 16D/	.	.	.	16f\K 16B-\	.	16dd\K 16d\	.	16ff\K 16f\	.	16B-\K	16F/K 16D|/	.	.	.	.	.	16b-\K	.	16f/K 16d|/	.	.	16B-\K	.	16ff/K 16b-/	.	16f/K 16d|/	.	.	16f/K 16d|/	.	.	16dd\K 16b-'\	.	16ff|\K	.	16ff|\K	.
8.F\	.	.	.	8.F\	-de-	8.B-/ 8.F/	.	.	.	8.d\ 8.B-\	.	8.ff\ 8.f\	.	8.bb-\ 8.b-\	.	8.F\	8.B-/ 8.F|/	.	.	.	4r	.	8.f\	.	8.b-/ 8.f|/	.	.	8.F\	.	8.ff/ 8.b-/	.	8.b-/ 8.f|/	.	.	8.b-/ 8.f|/	.	.	8.ff\ 8.dd'\	.	8.bb-|\	.	8.bb-|\	.
16D\Jk	.	.	.	16D\	-tur	16d\ 16B-\	.	.	.	16f\Jk 16B-\	.	16bb-\Jk 16b-\	.	16ddd\Jk 16dd\	.	16D\Jk	16d/Jk 16B-|/	.	.	.	.	.	16d\Jk	.	16dd/Jk 16b-|/	.	.	16D\Jk	.	16ff/Jk 16b-/	.	16dd/Jk 16b-|/	.	.	16dd/Jk 16b-|/	.	.	16bb-\Jk 16ff'\	.	16ddd|\Jk	.	16ddd|\Jk	.
=20	=20	=20	=20	=20	=20	=20	=20	=20	=20	=20	=20	=20	=20	=20	=20	=20	=20	=20	=20	=20	=20	=20	=20	=20	=20	=20	=20	=20	=20	=20	=20	=20	=20	=20	=20	=20	=20	=20	=20	=20	=20	=20	=20
*	*	*	*	*	*	*	*	*	*	*	*	*	*	*	*	*	*	*	*	*	*	*	*	*	*	*	*	*	*	*	*	*	*	*	*	*	*	*^	*	*	*	*	*
*	*	*	*	*	*	*	*	*	*	*tremolo	*	*tremolo	*	*tremolo	*	*	*	*	*	*	*tremolo	*	*	*	*	*	*	*	*	*	*	*	*	*	*	*	*	*	*	*	*	*	*	*
!	!	!	!	!	!	!	!	!	!	!	!	!	!	!	!	!	!LO:S:s=2:note:problem:note-level slur	!	!	!	!	!	!	!	!	!	!	!	!	!	!	!	!	!	!	!	!	!	!	!	!	!	!	!
8.BB-/L	.	1ryy	.	2BB-/	vo-	2f\ 2d\	2rBByy	.	.	32b-\LLL 32d\	.	32ddd\LLL 32dd\	.	32fff\LLL 32ff\	.	8.BB-/L	(>(>2f\ 2d\	2rBByy	.	1ryy	32BB-/LLL	.	8B-/L	.	2ff/	2dd\	.	8.BB-|/L	.	2ff/ 2b-/	.	2ff/	2dd\	.	(2ffT/	2dd\	.	2dddt/	2bb-\	.	2fffT\	.	2fffT\	.
.	.	.	.	.	.	.	.	.	.	32b-\ 32d\	.	32ddd\ 32dd\	.	32fff\ 32ff\	.	.	.	.	.	.	32BB-/	.	.	.	.	.	.	.	.	.	.	.	.	.	.	.	.	.	.	.	.	.	.	.
.	.	.	.	.	.	.	.	.	.	32b-\ 32d\	.	32ddd\ 32dd\	.	32fff\ 32ff\	.	.	.	.	.	.	32BB-/	.	.	.	.	.	.	.	.	.	.	.	.	.	.	.	.	.	.	.	.	.	.	.
.	.	.	.	.	.	.	.	.	.	32b-\ 32d\	.	32ddd\ 32dd\	.	32fff\ 32ff\	.	.	.	.	.	.	32BB-/	.	.	.	.	.	.	.	.	.	.	.	.	.	.	.	.	.	.	.	.	.	.	.
.	.	.	.	.	.	.	.	.	.	32b-\ 32d\	.	32ddd\ 32dd\	.	32fff\ 32ff\	.	.	.	.	.	.	32BB-/	.	16B-/L	.	.	.	.	.	.	.	.	.	.	.	.	.	.	.	.	.	.	.	.	.
.	.	.	.	.	.	.	.	.	.	32b-\ 32d\	.	32ddd\ 32dd\	.	32fff\ 32ff\	.	.	.	.	.	.	32BB-/	.	.	.	.	.	.	.	.	.	.	.	.	.	.	.	.	.	.	.	.	.	.	.
16BB-/K	.	.	.	.	.	.	.	.	.	32b-\ 32d\	.	32ddd\ 32dd\	.	32fff\ 32ff\	.	16BB-/K	.	.	.	.	32BB-/	.	16B-/JJ	.	.	.	.	16BB-|/K	.	.	.	.	.	.	.	.	.	.	.	.	.	.	.	.
.	.	.	.	.	.	.	.	.	.	32b-\ 32d\	.	32ddd\ 32dd\	.	32fff\ 32ff\	.	.	.	.	.	.	32BB-/	.	.	.	.	.	.	.	.	.	.	.	.	.	.	.	.	.	.	.	.	.	.	.
8.D/	.	.	.	.	.	.	.	.	.	32b-\ 32d\	.	32ddd\ 32dd\	.	32fff\ 32ff\	.	8.D/	.	.	.	.	32BB-/	.	8.d/L	.	.	.	.	8.D|/	.	.	.	.	.	.	.	.	.	.	.	.	.	.	.	.
.	.	.	.	.	.	.	.	.	.	32b-\ 32d\	.	32ddd\ 32dd\	.	32fff\ 32ff\	.	.	.	.	.	.	32BB-/	.	.	.	.	.	.	.	.	.	.	.	.	.	.	.	.	.	.	.	.	.	.	.
.	.	.	.	.	.	.	.	.	.	32b-\ 32d\	.	32ddd\ 32dd\	.	32fff\ 32ff\	.	.	.	.	.	.	32BB-/	.	.	.	.	.	.	.	.	.	.	.	.	.	.	.	.	.	.	.	.	.	.	.
.	.	.	.	.	.	.	.	.	.	32b-\ 32d\	.	32ddd\ 32dd\	.	32fff\ 32ff\	.	.	.	.	.	.	32BB-/	.	.	.	.	.	.	.	.	.	.	.	.	.	.	.	.	.	.	.	.	.	.	.
.	.	.	.	.	.	.	.	.	.	32b-\ 32d\	.	32ddd\ 32dd\	.	32fff\ 32ff\	.	.	.	.	.	.	32BB-/	.	.	.	.	.	.	.	.	.	.	.	.	.	.	.	.	.	.	.	.	.	.	.
.	.	.	.	.	.	.	.	.	.	32b-\ 32d\	.	32ddd\ 32dd\	.	32fff\ 32ff\	.	.	.	.	.	.	32BB-/	.	.	.	.	.	.	.	.	.	.	.	.	.	.	.	.	.	.	.	.	.	.	.
16F/Jk	.	.	.	.	.	.	.	.	.	32b-\ 32d\	.	32ddd\ 32dd\	.	32fff\ 32ff\	.	16F/Jk	.	.	.	.	32BB-/	.	16f/Jk	.	.	.	.	16F|/Jk	.	.	.	.	.	.	.	.	.	.	.	.	.	.	.	.
.	.	.	.	.	.	.	.	.	.	32b-\JJJ 32d\	.	32ddd\JJJ 32dd\	.	32fff\JJJ 32ff\	.	.	.	.	.	.	32BB-/JJJ	.	.	.	.	.	.	.	.	.	.	.	.	.	.	.	.	.	.	.	.	.	.	.
.	.	.	.	.	.	.	.	.	.	.	.	.	.	.	.	.	.	.	.	.	.	.	.	.	.	.	.	.	.	.	.	.	.	.	16qqeeX/LL 16qqcc#X/	.	.	(16qqccc#X/LL	.	.	(16qqeeen/LL	.	(16qqeeen/LL	.
.	.	.	.	.	.	.	.	.	.	.	.	.	.	.	.	.	.	.	.	.	.	.	.	.	.	.	.	.	.	.	.	.	.	.	16qqff/JJ 16qqdd/)	.	.	16qqddd/JJ)	.	.	16qqfff/JJ)	.	16qqfff/JJ	.
*	*	*	*	*	*	*	*	*	*	*Xtremolo	*	*Xtremolo	*	*Xtremolo	*	*	*	*	*	*	*Xtremolo	*	*	*	*	*	*	*	*	*	*	*	*	*	*	*	*	*	*	*	*	*	*	*
4B-\	.	.	.	4BB-/	-tum	4d/	4B-\	.	.	4f\ 4B-\	.	4bb-\ 4b-\	.	4ddd\ 4dd\	.	4B-\	4d/)	4B-\)	.	.	4BB-/	.	4b-\	.	4dd/	4b-\	.	4B-|\	.	4ff/ 4b-/	.	4dd/	4b-\	.	4dd\	4b-\	.	4bb-/	4ff\	.	4ddd\	.	4ddd\)	.
8.BB-/L	.	.	.	(4BB-/	in	[4B-/	4B-\	.	.	8.B-/L	.	8.b-\L	.	8.b-\L	.	8.BB-/L	8.B-\L	4rBByy	.	.	8.BB-/L	.	8.b-\L	.	8.b-/L	8.b-\L	.	8.BB-|/L	.	8.b-/L	.	8.b-/L	8.b-\L	.	8.b-\L	4rByy	.	8.b-\L	4rcyy	.	8.b-\L	.	8.bb-\L	.
16BB-/Jk	.	.	.	.	.	.	.	.	.	16B-/Jk	.	16b-\Jk	.	16b-\Jk	.	16BB-/Jk	16B-\Jk	.	.	.	16BB-/Jk	.	16b-\Jk	.	16b-/Jk	16b-\Jk	.	16BB-|/Jk	.	16b-/Jk	.	16b-/Jk	16b-\Jk	.	16b-\Jk	.	.	16b-\Jk	.	.	16b-\Jk	.	16bb-\Jk	.
*	*	*	*	*	*	*	*	*	*	*	*	*	*	*	*	*	*	*	*	*	*	*	*	*	*	*	*	*	*	*	*	*	*	*	*	*	*	*v	*v	*	*	*	*	*
!!LO:PB:g=original
=21	=21	=21	=21	=21	=21	=21	=21	=21	=21	=21	=21	=21	=21	=21	=21	=21	=21	=21	=21	=21	=21	=21	=21	=21	=21	=21	=21	=21	=21	=21	=21	=21	=21	=21	=21	=21	=21	=21	=21	=21	=21	=21	=21
4G-X\	.	1ryy	.	4G-X\)	.	4B-/]	4B-\	.	.	4g-X\	.	4b-\	.	4bb-\ 4b-\	.	4G-X\	4B-/	4B-\	.	1ryy	4BB-/	.	4b-\	.	4b-/	4b-\	.	4G-X/ 4GG-X|/	.	4b-/	.	4b-/	4b-\	.	4b-/	4b-\	.	4bb-\	.	4bb-\	.	4bb-\	.
8.G-\L	.	.	.	4G-\	ie-	8.B-/L	4B-\	.	.	8.B-/L	.	8.b-\L	.	8.b-\L	.	8.G-\L	8.B-/L	8.B-\L	.	.	8.BB-/L	.	8.b-\L	.	8.b-/L	8.b-\L	.	8.G-/L 8.GG-|/	.	8.b-/L	.	8.b-/L	8.b-\L	.	8.b-/L	8.b-\L	.	8.bb-\L 8.b-\	.	8.bb-\L	.	8.bb-\L	.
16G-\Jk	.	.	.	.	.	16c/Jk	.	.	.	16c/Jk	.	16b-\Jk	.	16cc\Jk	.	16G-\Jk	16c/Jk	16B-\Jk	.	.	16BB-/Jk	.	16b-\Jk	.	16cc/Jk	16b-\Jk	.	16G-/Jk 16GG-|/	.	16b-/Jk	.	16cc/Jk	16b-\Jk	.	16cc/Jk	16b-\Jk	.	16bb-\Jk 16cc\	.	16ccc\Jk	.	16ccc\Jk	.
4G-\	.	.	.	4G-\	-ru-	4d-X/	4B-\	.	.	4d-X/	.	4b-\	.	4dd-X\	.	4G-\	4d-X/	4B-\	.	.	4BB-/	.	4b-\	.	4dd-X/	4b-\	.	4G-/ 4GG-|/	.	4b-/	.	4dd-X/	4b-\	.	4dd-X/	4b-\	.	4bb-\ 4dd-X\	.	4ddd-X\	.	4ddd-X\	.
4G-\	.	.	.	4G-\	-sa-	4e-/	4B-\	.	.	4c/	.	4b-\	.	4ee-\	.	4G-\	4c/	4B-\	.	.	4BB-/	.	4b-\	.	4ee-/	4b-\	.	4G-/ 4GG-|/	.	4b-/	.	4cc/	4b-\	.	4cc/	4b-\	.	4bb-\ 4ee-\	.	4eee-\	.	4eee-\	.
*	*	*	*	*	*	*v	*v	*	*	*	*	*	*	*	*	*	*v	*v	*	*	*	*	*	*	*v	*v	*	*	*	*	*	*v	*v	*	*	*	*	*	*	*	*	*	*
=22	=22	=22	=22	=22	=22	=22	=22	=22	=22	=22	=22	=22	=22	=22	=22	=22	=22	=22	=22	=22	=22	=22	=22	=22	=22	=22	=22	=22	=22	=22	=22	=22	=22	=22	=22	=22	=22	=22	=22
*	*	*	*	*	*	*	*	*	*	*	*	*	*	*	*	*	*	*	*	*	*	*	*	*	*	*	*^	*	*	*	*	*	*	*	*	*	*	*	*
8.F\L	.	2.ryy	.	4F\	-lem	4f\ 4A\	.	.	4c/ 4F/	.	4an/	.	4ff\	.	8.F\L	4c\ 4An\	.	2.ryy	4F\	.	4f/	.	4ff\ 4an\	.	8.F/L 8.FF/	.	4ff/	4ff\	.	4cc/ 4f/	.	4cc/	4a\	.	4aan\ 4ff\	.	4fff\	.	4fff\	.
16F\K	.	.	.	.	.	.	.	.	.	.	.	.	.	.	16F\K	.	.	.	.	.	.	.	.	.	16F/K	.	.	.	.	.	.	.	.	.	.	.	.	.	.	.
8.C\	.	.	.	4r	.	4r	.	.	8.f/L 8.An/	.	8.cc/L 8.f/	.	8.ff\L 8.an\	.	8.C\	8.c\L 8.A\	.	.	8.F\L	.	8.f/L	.	8.ff\L 8.a\	.	8.C/	.	8.ff\L	4reyy	.	8.cc/L 8.f/	.	8.ff\L 8.a\	4rByy	.	8.aa\L 8.ff\	.	8.fff\L	.	8.fff\L	.
16AAn\Jk	.	.	.	.	.	.	.	.	16f/Jk 16A/	.	16cc/Jk 16f/	.	16ff\Jk 16a\	.	16AAn\Jk	16c\Jk 16A\	.	.	16F\Jk	.	16f/Jk	.	16ff\Jk 16a\	.	16AAn/Jk	.	16ff\Jk	.	.	16cc/Jk 16f/	.	16ff\Jk 16a\	.	.	16aa\Jk 16ff\	.	16fff\Jk	.	16fff\Jk	.
4FF/	.	.	.	4r	.	4r	.	.	4f/ 4A/	.	4cc/ 4f/	.	4ff\ 4a\	.	4FF/	4c\ 4A\	.	.	4F\	.	4f/	.	4ff\ 4a\	.	4FF/	.	4ff\	4reyy	.	4cc/ 4f/	.	4ff\ 4a\	4rByy	.	4aa\ 4ff\	.	4fff\	.	4fff\	.
*	*	*	*	*	*	*	*	*	*	*	*	*	*	*	*	*	*	*	*	*	*	*	*	*	*	*	*v	*v	*	*	*	*v	*v	*	*	*	*	*	*	*
=:|!|:	=:|!|:	=:|!|:	=:|!|:	=:|!|:	=:|!|:	=:|!|:	=:|!|:	=:|!|:	=:|!|:	=:|!|:	=:|!|:	=:|!|:	=:|!|:	=:|!|:	=:|!|:	=:|!|:	=:|!|:	=:|!|:	=:|!|:	=:|!|:	=:|!|:	=:|!|:	=:|!|:	=:|!|:	=:|!|:	=:|!|:	=:|!|:	=:|!|:	=:|!|:	=:|!|:	=:|!|:	=:|!|:	=:|!|:	=:|!|:	=:|!|:	=:|!|:	=:|!|:	=:|!|:
!	!	!	!	!	!	!	!	!	!	!LO:DY:rj	!	!	!	!LO:DY:rj	!	!	!	!	!	!	!	!	!	!	!	!	!	!	!	!	!	!	!	!	!	!	!	!
4r	.	8.f|\L	p	4F\	.	4f\ 4A\	Ex-	.	8.f\L	p	8.a|/L	.	8.ff|\L	p	4r	4r	.	4ryy	4r	.	4r	.	4r	.	4r	.	4r	.	4r	.	4r	.	4r	.	4r	.	4r	.
.	.	16f|\Jk	.	.	.	.	.	.	16f\Jk	.	16a|/Jk	.	16ff|\Jk	.	.	.	.	.	.	.	.	.	.	.	.	.	.	.	.	.	.	.	.	.	.	.	.	.
=23	=23	=23	=23	=23	=23	=23	=23	=23	=23	=23	=23	=23	=23	=23	=23	=23	=23	=23	=23	=23	=23	=23	=23	=23	=23	=23	=23	=23	=23	=23	=23	=23	=23	=23	=23	=23	=23	=23
*	*	*	*	*	*	*^	*	*	*	*	*	*	*	*	*	*	*	*	*	*	*	*	*	*	*	*	*	*	*	*	*	*	*	*	*	*	*	*
1r	.	(4e-\	.	4E-\	.	4g-X\ 4B-\	2rBByy	-au-	.	(4e-\	.	[4b-/	.	(4gg-X\	.	1ryy	1ryy	.	1ryy	1ryy	.	1ryy	.	1ryy	.	1ryy	.	1ryy	.	1ryy	.	1ryy	.	1r	.	1r	.	1r	.
.	.	8.d-X\L)	.	8.D-X\	.	8.f\ 8.B-\	.	-di	.	8.d-X\L)	.	8.b-/L]	.	8.ff\L)	.	.	.	.	.	.	.	.	.	.	.	.	.	.	.	.	.	.	.	.	.	.	.	.	.
.	.	16d-|\Jk	.	16D-\	.	16f\ 16B-\	.	o-	.	16d-|\Jk	.	16b-|/Jk	.	16ff|\Jk	.	.	.	.	.	.	.	.	.	.	.	.	.	.	.	.	.	.	.	.	.	.	.	.	.
.	.	(4c\	.	4C/	.	8f/L	4A\	-ra-	.	(4c/	.	(4a/	.	(8ff\L	.	.	.	.	.	.	.	.	.	.	.	.	.	.	.	.	.	.	.	.	.	.	.	.	.
.	.	.	.	.	.	8e-/J	.	.	.	.	.	.	.	8ee-\J)	.	.	.	.	.	.	.	.	.	.	.	.	.	.	.	.	.	.	.	.	.	.	.	.	.
.	.	4B-\)	.	4BB-/	.	4d-X/	4B-\	-ti-	.	4B-/)	.	4b-/)	.	4dd-X\	.	.	.	.	.	.	.	.	.	.	.	.	.	.	.	.	.	.	.	.	.	.	.	.	.
!!LO:PB:g=original
=24	=24	=24	=24	=24	=24	=24	=24	=24	=24	=24	=24	=24	=24	=24	=24	=24	=24	=24	=24	=24	=24	=24	=24	=24	=24	=24	=24	=24	=24	=24	=24	=24	=24	=24	=24	=24	=24	=24	=24
*	*	*	*	*	*	*	*	*	*	*	*	*	*	*	*	*	*	*	*	*	*	*	*	*	*	*	*	*^	*	*	*	*	*	*	*	*	*	*	*
2ryy	.	(4An\	.	8AAn/	.	8c/	8F\	-o-	.	(4An/	.	[4f/	.	(4cc\	.	2r	2r	.	1ryy	2r	.	2r	.	2r	.	2r	.	2r	2reyy	.	2r	.	2r	.	2r	.	2r	.	2r	.
.	.	.	.	8AA/	.	8c/	8F\	-nem	.	.	.	.	.	.	.	.	.	.	.	.	.	.	.	.	.	.	.	.	.	.	.	.	.	.	.	.	.	.	.	.
.	.	8.G-X\L)	.	4GG-X/	.	4B-/	8.F\L	me-	.	8.G-X/L)	.	8.f/L]	.	8.b-\L)	.	.	.	.	.	.	.	.	.	.	.	.	.	.	.	.	.	.	.	.	.	.	.	.	.	.
.	.	16G-|\Jk	.	.	.	.	16En\Jk	.	.	16G-/Jk	.	16en/Jk	.	16b-\Jk	.	.	.	.	.	.	.	.	.	.	.	.	.	.	.	.	.	.	.	.	.	.	.	.	.	.
4ryy	.	4F|\	.	4FF/	.	4A/	4F\	-am	.	4F/	.	4f/	.	4a/	.	4r	4r	.	.	4r	.	4r	.	4r	.	4r	.	4rff	4reyy	.	4r	.	4r	.	4r	.	4r	.	4r	.
!	!LO:DY:rj	!	!LO:DY:rj	!	!	!	!	!	!	!	!	!	!	!	!LO:DY:rj	!	!	!LO:DY:rj	!	!	!LO:DY:rj	!	!	!	!	!	!LO:DY:rj	!	!	!	!	!LO:DY:rj	!	!	!	!LO:DY:rj	!	!	!	!LO:DY:rj
8.F\L	f	8.F\L	f	4F\	.	4F/	4F\	Ad	.	8.f\L	.	8.f/L	.	8.ff\L	f	8.F\L	8.F/L	f	.	8.F\L	f	8.f/L	.	8.f/L	.	8.F/L 8.FF/	f	8.ff/L	8.ff\L	.	8.f/L	f	8.f/L	.	8.ff\L 8.f\	f	8.ff\L	.	8.ff|\L	f
16F\Jk	.	16F\Jk	.	.	.	.	.	.	.	16f\Jk	.	16f/Jk	.	16ff\Jk	.	16F\Jk	16F/Jk	.	.	16F\Jk	.	16f/Jk	.	16f/Jk	.	16F/Jk 16FF/	.	16ff/Jk	[16ff\Jk	.	16f/Jk	.	16f/Jk	.	16ff\Jk 16f\	.	16ff\Jk	.	16ff|\Jk	.
=25	=25	=25	=25	=25	=25	=25	=25	=25	=25	=25	=25	=25	=25	=25	=25	=25	=25	=25	=25	=25	=25	=25	=25	=25	=25	=25	=25	=25	=25	=25	=25	=25	=25	=25	=25	=25	=25	=25	=25	=25
*	*	*	*	*	*	*	*	*	*	*	*	*	*	*^	*	*	*^	*	*	*	*	*	*	*	*	*	*	*	*	*	*^	*	*	*	*	*	*	*	*	*
4.G-X\	.	4.G-X\yy	.	4.G-X\	.	4.B-/	4.B-\	te	.	4.g-X\	.	4.b-\	.	4.bb-\	4rcyy	.	4.G-X\	4.B-/	4.B-\	.	1ryy	4.BB-/	.	4.b-\	.	4.b-\	.	4.G-X/ 4.GG-X/	.	4.gg-X/ 4.b-/	4.ryy	.	4.b-/	4.b-\	.	4.b-\	.	4.bb-\ 4.b-\	.	4.bb-\	.	4.bb-\	.
.	.	.	.	.	.	.	.	.	.	.	.	.	.	.	8rcyy	.	.	.	.	.	.	.	.	.	.	.	.	.	.	.	.	.	.	.	.	.	.	.	.	.	.	.	.
8G-\	.	8G-\yy	.	16G-\	.	16B-/	16B-\	om-	.	8b-\ 8g-\	.	(16b-\LL	.	(<16bb-/LL	16bb-\LL	.	8G-\	8d-X/	8B-\	.	.	16BB-/LL	.	16b-\LL	.	(16b-\LL	.	8G-/ 8GG-/	.	8bb-/	8gg-\	.	8dd-X/	8b-\	.	(16b-\LL	.	16bb-\LL 16b-\	.	(16bb-\LL	.	(16bb-\LL	.
.	.	.	.	16G-\	.	16c/	16B-\	-nis	.	.	.	16cc\JJ	.	16ccc/JJ)	16ccc\JJ	.	.	.	.	.	.	16BB-/JJ	.	16b-\JJ	.	16cc\JJ	.	.	.	.	.	.	.	.	.	16cc\JJ	.	16ccc\JJ 16cc\	.	16ccc\JJ	.	16ccc\JJ	.
4G-\	.	4G-\yy	.	4G-\	.	4d-X/	4B-\	ca-	.	4b-\ 4g-\	.	4dd-X\)	.	4ddd-X\	2rcyy	.	4G-\	4d-/	4B-\	.	.	4BB-/	.	4b-\	.	4dd-X\)	.	4G-/ 4GG-/	.	4bb-/	4gg-\	.	4dd-/	4b-\	.	4dd-X\)	.	4ddd-X\ 4dd-X\	.	4ddd-X\)	.	4ddd-X\)	.
4G-\	.	4G-\yy	.	4G-\	.	4en/	4B-\	-ro	.	4b-\ 4g-\	.	4cc/ 4en/	.	4een\	.	.	4G-\	4c/	4B-\	.	.	4BB-/	.	4b-\	.	4en/	.	4G-/ 4GG-/	.	4bb-/	4gg-\	.	4cc/	4b-\	.	4eX/	.	4een\	.	4een\	.	4een\	.
*	*	*	*	*	*	*	*	*	*	*	*	*	*	*v	*v	*	*	*	*	*	*	*	*	*	*	*	*	*	*	*	*	*	*v	*v	*	*	*	*	*	*	*	*	*
=26	=26	=26	=26	=26	=26	=26	=26	=26	=26	=26	=26	=26	=26	=26	=26	=26	=26	=26	=26	=26	=26	=26	=26	=26	=26	=26	=26	=26	=26	=26	=26	=26	=26	=26	=26	=26	=26	=26	=26	=26	=26
4F\	.	4F\yy	.	4..F\	.	4..f/	4..A\	ve-	.	4a\ 4f\	.	4cc/ 4f/	.	4ff\	.	4F\	4c/	4A\	.	1ryy	4F\	.	4f/	.	4f/	.	4F/ 4FF/	.	4aanX/	4ff\	.	4cc/ 4f/	.	4f/	.	4ff\	.	4ff\	.	4ff\	.
8.F\L	.	8.F\Lyy	.	.	.	.	.	.	.	8.f\L	.	8.cc/L 8.f/	.	8.ff\L 8.a\	.	8.F\L	8.f\L 8.A\	4rBByy	.	.	8.F\L	.	8.f/L	.	8.ff\L 8.a\	.	8.F\L	.	8.aa/L	8.ff\L	.	8.cc/L 8.f/	.	8.ff\L 8.a\	.	8.aa\L 8.cc\	.	8.fff\L	.	8.fff\L	.
16F\Jk	.	16F\Jkyy	.	16F\	.	16f/	16A\	-ni-	.	16f\Jk	.	16cc/Jk 16f/	.	16ff\Jk 16a\	.	16F\Jk	16f\Jk 16A\	.	.	.	16F\Jk	.	16f/Jk	.	16ff\Jk 16a\	.	16F\Jk	.	16aa/Jk	16ff\Jk	.	16cc/Jk 16f/	.	16ff\Jk 16a\	.	16aa\Jk 16cc\	.	16fff\Jk	.	16fff\Jk	.
8.F\L	.	8.F\Lyy	.	4F\	.	4f/	4A\	-et	.	8.f\L	.	4cc/ 4f/	.	4ff\ 4a\	.	8.F\L	4f\ 4A\	2rBByy	.	.	4F\	.	4f/	.	4ff\ 4a\	.	8.F\L	.	4aa/	4ff\	.	4cc/ 4f/	.	4ff\ 4a\	.	4aa\ 4cc\	.	4fff\	.	4fff\	.
16E-\K	.	16E-\Kyy	.	.	.	.	.	.	.	16e-\K	.	.	.	.	.	16E-\K	.	.	.	.	.	.	.	.	.	.	16E-\K	.	.	.	.	.	.	.	.	.	.	.	.	.	.
!	!	!	!	!	!	!	!	!	!	!	!	!	!	!	!	!	!	!	!	!	!	!	!	!	!	!	!	!	!	!	!	!	!LO:DY:rj	!	!	!	!LO:DY:rj	!	!LO:DY:a:rj	!	!
8.D\	.	8.D\yy	.	4F\	.	4F/	4rBByy	Ex-	.	8.d\	.	8.ff\L 8.g\	.	8.ff/L 8.f/	ff	8.D\	8.F/L	.	.	.	8.F\L	.	8.f/L	.	8.f/L	.	8.D\	.	8.ff/L	8.ff\L	.	8.f/L	ff	8.f/L	.	8.ff\L	ff	8.ff|\L	ff	8.ff|\L	.
16C\Jk	.	16C\Jkyy	.	.	.	.	.	.	.	16c\Jk	.	16ff\Jk 16g\	.	16ff/Jk 16f/	.	16C\Jk	16F/Jk	.	.	.	16F\Jk	.	16f/Jk	.	16f/Jk	.	16C\Jk	.	16ff/Jk	16ff\Jk	.	16f/Jk	.	16f/Jk	.	16ff\Jk	.	16ff|\Jk	.	16ff|\Jk	.
*	*	*	*	*	*	*v	*v	*	*	*	*	*	*	*	*	*	*	*	*	*	*	*	*	*	*	*	*	*	*v	*v	*	*	*	*	*	*	*	*	*	*	*
!!LO:PB:g=original
=27	=27	=27	=27	=27	=27	=27	=27	=27	=27	=27	=27	=27	=27	=27	=27	=27	=27	=27	=27	=27	=27	=27	=27	=27	=27	=27	=27	=27	=27	=27	=27	=27	=27	=27	=27	=27	=27	=27	=27
*	*	*	*	*	*	*	*	*	*	*	*	*	*	*	*	*	*	*	*	*	*	*	*	*^	*	*	*	*	*	*^	*	*^	*	*	*	*	*	*	*
!	!LO:DY:rj	!	!LO:DY:rj	!	!	!	!	!	!	!	!	!	!	!	!	!	!	!	!	!	!	!LO:TX:t=P:problem:mixed beam	!	!	!	!	!	!	!	!	!	!	!	!	!	!	!	!	!	!	!	!
*	*	*	*	*	*	*	*	*	*tremolo	*	*tremolo	*	*tremolo	*	*	*	*	*	*	*tremolo	*	*	*	*	*	*	*	*	*	*	*	*	*	*	*	*	*	*	*	*	*	*
!	!	!	!	!	!	!	!	!	!	!	!	!	!	!	!	!	!	!	!	!	!LO:DY:rj	!	!	!	!	!	!	!LO:DY:rj	!	!	!	!	!	!	!	!	!	!	!	!	!	!
8.BB-/L	ff	8.BB-/Lyy	ffy	2BB-/	.	2d/ 2F/	-au-	.	32f\LLL 32B-\	.	32bb-\LLL 32b-\	.	32ddd\LLL 32dd\	.	8.BB-/L	(2d/	(>2B-\	.	1ryy	32BB-/LLL	ff	8b-\L	.	(2dd/	(>2b-\	.	8.BB-/L	ff	[2ff/ [2b-/	.	(2dd/	(>2b-\	.	(2ddt/	2b-\	.	(2bb-T\	.	(2dddt\	.	2dddt\	.
.	.	.	.	.	.	.	.	.	32f\ 32B-\	.	32bb-\ 32b-\	.	32ddd\ 32dd\	.	.	.	.	.	.	32BB-/	.	.	.	.	.	.	.	.	.	.	.	.	.	.	.	.	.	.	.	.	.	.
.	.	.	.	.	.	.	.	.	32f\ 32B-\	.	32bb-\ 32b-\	.	32ddd\ 32dd\	.	.	.	.	.	.	32BB-/	.	.	.	.	.	.	.	.	.	.	.	.	.	.	.	.	.	.	.	.	.	.
.	.	.	.	.	.	.	.	.	32f\ 32B-\	.	32bb-\ 32b-\	.	32ddd\ 32dd\	.	.	.	.	.	.	32BB-/	.	.	.	.	.	.	.	.	.	.	.	.	.	.	.	.	.	.	.	.	.	.
.	.	.	.	.	.	.	.	.	32f\ 32B-\	.	32bb-\ 32b-\	.	32ddd\ 32dd\	.	.	.	.	.	.	32BB-/	.	16B-/L	.	.	.	.	.	.	.	.	.	.	.	.	.	.	.	.	.	.	.	.
.	.	.	.	.	.	.	.	.	32f\ 32B-\	.	32bb-\ 32b-\	.	32ddd\ 32dd\	.	.	.	.	.	.	32BB-/	.	.	.	.	.	.	.	.	.	.	.	.	.	.	.	.	.	.	.	.	.	.
16BB-/K	.	16BB-/Kyy	.	.	.	.	.	.	32f\ 32B-\	.	32bb-\ 32b-\	.	32ddd\ 32dd\	.	16BB-/K	.	.	.	.	32BB-/	.	16B-/J	.	.	.	.	16BB-/K	.	.	.	.	.	.	.	.	.	.	.	.	.	.	.
.	.	.	.	.	.	.	.	.	32f\ 32B-\	.	32bb-\ 32b-\	.	32ddd\ 32dd\	.	.	.	.	.	.	32BB-/	.	.	.	.	.	.	.	.	.	.	.	.	.	.	.	.	.	.	.	.	.	.
8.D/	.	8.D/yy	.	.	.	.	.	.	32f\ 32B-\	.	32bb-\ 32b-\	.	32ddd\ 32dd\	.	8.D/	.	.	.	.	32BB-/	.	8.d/	.	.	.	.	8.D/	.	.	.	.	.	.	.	.	.	.	.	.	.	.	.
.	.	.	.	.	.	.	.	.	32f\ 32B-\	.	32bb-\ 32b-\	.	32ddd\ 32dd\	.	.	.	.	.	.	32BB-/	.	.	.	.	.	.	.	.	.	.	.	.	.	.	.	.	.	.	.	.	.	.
.	.	.	.	.	.	.	.	.	32f\ 32B-\	.	32bb-\ 32b-\	.	32ddd\ 32dd\	.	.	.	.	.	.	32BB-/	.	.	.	.	.	.	.	.	.	.	.	.	.	.	.	.	.	.	.	.	.	.
.	.	.	.	.	.	.	.	.	32f\ 32B-\	.	32bb-\ 32b-\	.	32ddd\ 32dd\	.	.	.	.	.	.	32BB-/	.	.	.	.	.	.	.	.	.	.	.	.	.	.	.	.	.	.	.	.	.	.
.	.	.	.	.	.	.	.	.	32f\ 32B-\	.	32bb-\ 32b-\	.	32ddd\ 32dd\	.	.	.	.	.	.	32BB-/	.	.	.	.	.	.	.	.	.	.	.	.	.	.	.	.	.	.	.	.	.	.
.	.	.	.	.	.	.	.	.	32f\ 32B-\	.	32bb-\ 32b-\	.	32ddd\ 32dd\	.	.	.	.	.	.	32BB-/	.	.	.	.	.	.	.	.	.	.	.	.	.	.	.	.	.	.	.	.	.	.
16F/Jk	.	16F/Jkyy	.	.	.	.	.	.	32f\ 32B-\	.	32bb-\ 32b-\	.	32ddd\ 32dd\	.	16F/Jk	.	.	.	.	32BB-/	.	16f/Jk	.	.	.	.	16F/Jk	.	.	.	.	.	.	.	.	.	.	.	.	.	.	.
.	.	.	.	.	.	.	.	.	32f\JJJ 32B-\	.	32bb-\JJJ 32b-\	.	32ddd\JJJ 32dd\	.	.	.	.	.	.	32BB-/JJJ	.	.	.	.	.	.	.	.	.	.	.	.	.	.	.	.	.	.	.	.	.	.
*	*	*	*	*	*	*	*	*	*Xtremolo	*	*Xtremolo	*	*Xtremolo	*	*	*	*	*	*	*Xtremolo	*	*	*	*	*	*	*	*	*	*	*	*	*	*	*	*	*	*	*	*	*	*
8.B-\L	.	8.B-\Lyy	.	8.BB-/	.	8.B-/ 8.D/	-di	.	8.d\L 8.B-\	.	8.ff\L 8.f\	.	8.bb-\L 8.b-\	.	8.B-\L	8.B-/L) 8.F/)	2rBByy	.	.	4BB-/	.	8.b-/L	.	8.b-/L 8.f/))	2rcyy	.	8.B-\L	.	8.ff/]L 8.b-/]	.	8.b-/L 8.d/))	2rByy	.	8.b-/L 8.f/)	2rByy	.	8.ff\L)	.	8.bb-\L)	.	8.bb-\L	.
16B-\K	.	16B-\Kyy	.	16B-\	.	16F/ 16D/	o-	.	16f\K 16B-\	.	16dd\K 16d\	.	16ff\K 16f\	.	16B-\K	16F/K 16D|/	.	.	.	.	.	16b-/K	.	16f/K 16d|/	.	.	16B-\K	.	16ff/K 16b-|/	.	16f/K 16d|/	.	.	16f/K 16d|/	.	.	16dd|\K	.	16ff|\K	.	16ff|\K	.
8.F\	.	8.F\yy	.	8.F\	.	8.B-/ 8.F/	-ra-	.	8.d\ 8.B-\	.	8.ff\ 8.f\	.	8.bb-\ 8.b-\	.	8.F\	8.B-/ 8.F|/	.	.	.	4r	.	8.f/	.	8.b-/ 8.f|/	.	.	8.F\	.	8.ff/ 8.b-|/	.	8.b-/ 8.f|/	.	.	8.b-/ 8.f|/	.	.	8.ff|\	.	8.bb-|\	.	8.bb-|\	.
16D\Jk	.	16D\Jkyy	.	16D\	.	16d\ 16B-\	-ti-	.	16f\Jk 16B-\	.	16bb-\Jk 16b-\	.	16ddd\Jk 16dd\	.	16D\Jk	16d/Jk 16B-|/	.	.	.	.	.	16d/Jk	.	16dd/Jk 16b-|/	.	.	16D\Jk	.	16ff/Jk 16b-|/	.	16dd/Jk 16b-|/	.	.	16dd/Jk 16b-|/	.	.	16bb-|\Jk	.	16ddd|\Jk	.	16ddd|\Jk	.
=28	=28	=28	=28	=28	=28	=28	=28	=28	=28	=28	=28	=28	=28	=28	=28	=28	=28	=28	=28	=28	=28	=28	=28	=28	=28	=28	=28	=28	=28	=28	=28	=28	=28	=28	=28	=28	=28	=28	=28	=28	=28	=28
*	*	*	*	*	*	*^	*	*	*	*	*	*	*	*	*	*	*	*	*	*	*	*	*	*	*	*	*^	*	*	*	*	*	*	*	*	*	*^	*	*	*	*	*
*	*	*	*	*	*	*	*	*	*	*tremolo	*	*tremolo	*	*tremolo	*	*	*	*	*	*	*tremolo	*	*	*	*	*	*	*	*	*	*	*	*	*	*	*	*	*	*	*	*	*	*	*	*
!	!	!	!	!	!	!	!	!	!	!	!	!	!	!	!	!	!LO:S:s=2:note:problem:note-level slur	!	!	!	!	!	!	!	!	!	!	!	!	!	!	!	!	!	!	!	!	!	!	!	!	!	!	!	!
8.BB-/L	.	8.BB-/Lyy	.	2BB-/	.	2f\ 2d\	2.rBByy	-o-	.	32b-\LLL 32d\	.	32ddd\LLL 32dd\	.	32fff\LLL 32ff\	.	8.BB-/L	(>2f\ (2d\	2rBByy	.	1ryy	32BB-/LLL	.	8B-/L	.	(2ff/	(>2dd\	.	8.BB-/L	2.rEEyy	.	[2ff/ [2b-/	.	(2ff/	(>2dd\	.	(2ffT/	(>2dd\	.	2dddt/	2bb-\	.	2fffT\	.	2fffT\	.
.	.	.	.	.	.	.	.	.	.	32b-\ 32d\	.	32ddd\ 32dd\	.	32fff\ 32ff\	.	.	.	.	.	.	32BB-/	.	.	.	.	.	.	.	.	.	.	.	.	.	.	.	.	.	.	.	.	.	.	.	.
.	.	.	.	.	.	.	.	.	.	32b-\ 32d\	.	32ddd\ 32dd\	.	32fff\ 32ff\	.	.	.	.	.	.	32BB-/	.	.	.	.	.	.	.	.	.	.	.	.	.	.	.	.	.	.	.	.	.	.	.	.
.	.	.	.	.	.	.	.	.	.	32b-\ 32d\	.	32ddd\ 32dd\	.	32fff\ 32ff\	.	.	.	.	.	.	32BB-/	.	.	.	.	.	.	.	.	.	.	.	.	.	.	.	.	.	.	.	.	.	.	.	.
.	.	.	.	.	.	.	.	.	.	32b-\ 32d\	.	32ddd\ 32dd\	.	32fff\ 32ff\	.	.	.	.	.	.	32BB-/	.	16B-/L	.	.	.	.	.	.	.	.	.	.	.	.	.	.	.	.	.	.	.	.	.	.
.	.	.	.	.	.	.	.	.	.	32b-\ 32d\	.	32ddd\ 32dd\	.	32fff\ 32ff\	.	.	.	.	.	.	32BB-/	.	.	.	.	.	.	.	.	.	.	.	.	.	.	.	.	.	.	.	.	.	.	.	.
16BB-/K	.	16BB-/Kyy	.	.	.	.	.	.	.	32b-\ 32d\	.	32ddd\ 32dd\	.	32fff\ 32ff\	.	16BB-/K	.	.	.	.	32BB-/	.	16B-/JJ	.	.	.	.	16BB-/K	.	.	.	.	.	.	.	.	.	.	.	.	.	.	.	.	.
.	.	.	.	.	.	.	.	.	.	32b-\ 32d\	.	32ddd\ 32dd\	.	32fff\ 32ff\	.	.	.	.	.	.	32BB-/	.	.	.	.	.	.	.	.	.	.	.	.	.	.	.	.	.	.	.	.	.	.	.	.
8.D/	.	8.D/yy	.	.	.	.	.	.	.	32b-\ 32d\	.	32ddd\ 32dd\	.	32fff\ 32ff\	.	8.D/	.	.	.	.	32BB-/	.	8.d/L	.	.	.	.	8.D/	.	.	.	.	.	.	.	.	.	.	.	.	.	.	.	.	.
.	.	.	.	.	.	.	.	.	.	32b-\ 32d\	.	32ddd\ 32dd\	.	32fff\ 32ff\	.	.	.	.	.	.	32BB-/	.	.	.	.	.	.	.	.	.	.	.	.	.	.	.	.	.	.	.	.	.	.	.	.
.	.	.	.	.	.	.	.	.	.	32b-\ 32d\	.	32ddd\ 32dd\	.	32fff\ 32ff\	.	.	.	.	.	.	32BB-/	.	.	.	.	.	.	.	.	.	.	.	.	.	.	.	.	.	.	.	.	.	.	.	.
.	.	.	.	.	.	.	.	.	.	32b-\ 32d\	.	32ddd\ 32dd\	.	32fff\ 32ff\	.	.	.	.	.	.	32BB-/	.	.	.	.	.	.	.	.	.	.	.	.	.	.	.	.	.	.	.	.	.	.	.	.
.	.	.	.	.	.	.	.	.	.	32b-\ 32d\	.	32ddd\ 32dd\	.	32fff\ 32ff\	.	.	.	.	.	.	32BB-/	.	.	.	.	.	.	.	.	.	.	.	.	.	.	.	.	.	.	.	.	.	.	.	.
.	.	.	.	.	.	.	.	.	.	32b-\ 32d\	.	32ddd\ 32dd\	.	32fff\ 32ff\	.	.	.	.	.	.	32BB-/	.	.	.	.	.	.	.	.	.	.	.	.	.	.	.	.	.	.	.	.	.	.	.	.
16F/Jk	.	16F/Jkyy	.	.	.	.	.	.	.	32b-\ 32d\	.	32ddd\ 32dd\	.	32fff\ 32ff\	.	16F/Jk	.	.	.	.	32BB-/	.	16f/Jk	.	.	.	.	16F/Jk	.	.	.	.	.	.	.	.	.	.	.	.	.	.	.	.	.
.	.	.	.	.	.	.	.	.	.	32b-\JJJ 32d\	.	32ddd\JJJ 32dd\	.	32fff\JJJ 32ff\	.	.	.	.	.	.	32BB-/JJJ	.	.	.	.	.	.	.	.	.	.	.	.	.	.	.	.	.	.	.	.	.	.	.	.
*	*	*	*	*	*	*	*	*	*	*Xtremolo	*	*Xtremolo	*	*Xtremolo	*	*	*	*	*	*	*Xtremolo	*	*	*	*	*	*	*	*	*	*	*	*	*	*	*	*	*	*	*	*	*	*	*	*
4B-\	.	4B-\yy	.	4BB-/	.	4d\ 4B-\	.	-nem	.	4f\ 4B-\	.	4bb-\ 4b-\	.	4ddd\ 4dd\	.	4B-\	4d/)	4B-\)	.	.	4BB-/	.	4b-\	.	4dd/)	4b-\)	.	4B-\	.	.	4ff/] 4b-/]	.	4dd/)	4b-\)	.	4dd\)	4b-\)	.	4bb-/	4ff\	.	4ddd\	.	4ddd\	.
!	!LO:DY:rj	!	!LO:DY:rj	!	!	!	!	!	!	!	!LO:DY:rj	!	!	!	!LO:DY:rj	!	!	!	!	!	!	!	!	!	!	!	!	!	!	!LO:DY:rj	!	!LO:DY:rj	!	!	!LO:DY:rj	!	!	!LO:DY:rj	!	!	!LO:DY:rj	!	!	!	!LO:DY:rj
8.E-\L	p	8.E-\Lyy	py	8.E-\	.	8.c/	8.c\	Ad	.	8.e-\L	p	8.cc/L 8.g/	.	8.ccc\L 8.cc\	p	4r	4rc	4rBByy	.	.	4r	.	4r	.	4r	4rcyy	.	8.G/L	8.E-\L	p	8.gg\L 8.ee-\	p	8.ee-\L 8.cc\	4rByy	p	8.cc/L	8.g\L	p	8.gg/L	8.cc\L	p	4r	.	8.ccc\L	p
16E-\Jk	.	16E-\Jkyy	.	16E-\	.	16g-X/	16c\	te	.	16e-\Jk	.	16cc/Jk 16g-X/	.	16gg-X\Jk	.	.	.	.	.	.	.	.	.	.	.	.	.	16G-X/Jk	16E-\Jk	.	16gg-X\Jk 16ee-\	.	16ee-\Jk 16cc\	.	.	16gg-X/Jk	16cc\Jk	.	16gg-X/Jk	16cc\Jk	.	.	.	16ggg-X\Jk	.
*	*	*	*	*	*	*	*	*	*	*	*	*	*	*	*	*	*	*	*	*	*	*	*	*	*v	*v	*	*	*	*	*	*	*v	*v	*	*	*	*	*	*	*	*	*	*	*
*	*	*	*	*	*	*	*	*	*	*	*	*	*	*	*	*	*v	*v	*	*	*	*	*	*	*	*	*v	*v	*	*	*	*	*	*	*	*	*	*	*	*	*	*	*
!!LO:PB:g=original
=29	=29	=29	=29	=29	=29	=29	=29	=29	=29	=29	=29	=29	=29	=29	=29	=29	=29	=29	=29	=29	=29	=29	=29	=29	=29	=29	=29	=29	=29	=29	=29	=29	=29	=29	=29	=29	=29	=29	=29	=29	=29
4F\	.	4F\yy	.	8.F\	.	8.f/	8.d\	om-	.	4b-\ 4d\	.	4dd/ 4f/	.	4ff\	.	1r	1r	.	1ryy	1r	.	1r	.	1r	.	4F\	.	4ff\	.	4dd\ 4b-\	.	4ff/	4dd\	.	4ff/	4dd\	.	1r	.	4fff\	.
.	.	.	.	16F\	.	16f/	16d\	-nis	.	.	.	.	.	.	.	.	.	.	.	.	.	.	.	.	.	.	.	.	.	.	.	.	.	.	.	.	.	.	.	.	.
8.F\L	.	8.F\Lyy	.	8.F\	.	8.d/	8.B-\	ca-	.	8.f\L 8.B-\	.	8.b-/L 8.f/	.	8.dd\L	.	.	.	.	.	.	.	.	.	.	.	8.F\L	.	8.ff\L	.	8.dd\L 8.b-\	.	8.dd\L 8.b-\	4rByy	.	8.dd/L	8.b-\L	.	.	.	8.ddd\L	.
16F\Jk	.	16F\Jkyy	.	16F\	.	16d/	16B-\	-ro	.	16f\Jk 16B-\	.	16b-/Jk 16f/	.	16dd\Jk	.	.	.	.	.	.	.	.	.	.	.	16F\Jk	.	16ff\Jk	.	16dd\Jk 16b-\	.	16dd\Jk 16b-\	.	.	16dd/Jk	16b-\Jk	.	.	.	16ddd\Jk	.
4F\	.	4F\yy	.	4F\	.	4c/	4B-\	ve-	.	4f\ 4c\	.	4b-/ 4f/	.	4cc\	.	.	.	.	.	.	.	.	.	.	.	4F\	.	4ff\	.	4cc/ 4f/	.	4cc/	4b-\	.	4cc/	4b-\	.	.	.	4ccc\	.
4FF/	.	4FF/yy	.	4F/ 4FF/	.	4f/	4A\	-ni-	.	4f\ 4c\	.	4a/ 4f/	.	4ff\	.	.	.	.	.	.	.	.	.	.	.	4F\ 4FF\	.	4ff\	.	4cc/ 4f/	.	4ff/	4a\	.	4ff/	4a\	.	.	.	4fff\	.
=30	=30	=30	=30	=30	=30	=30	=30	=30	=30	=30	=30	=30	=30	=30	=30	=30	=30	=30	=30	=30	=30	=30	=30	=30	=30	=30	=30	=30	=30	=30	=30	=30	=30	=30	=30	=30	=30	=30	=30	=30	=30
!LO:TX:t=P:problem:mixed beam	!	!LO:TX:t=P:problem:mixed beam	!	!	!	!	!	!	!	!	!	!	!	!	!	!	!	!	!	!	!	!	!	!	!	!	!	!	!	!	!	!	!	!	!	!	!	!	!	!	!
8.BB-/L	.	8.BB-/Lyy	.	4B-\ 4BB-\	.	4B-/	4B-\	-et	.	8.f\L 8.B-\	.	4b-/ 4d/	.	4b-\	.	8.r	4r	.	2.ryy	4r	.	8.r	.	4r	.	8.B-\L 8.BB-\	.	4ff/ 4b-/	.	4b-/ 4d/	.	4dd/	4b-\	.	4dd/	4b-\	.	4r	.	4bb-\	.
!	!LO:DY:rj	!	!LO:DY:rj	!	!	!	!	!	!	!	!	!	!	!	!	!	!	!	!	!	!	!	!	!	!	!	!	!	!	!	!	!	!	!	!	!	!	!	!	!	!
16B-\K	f	16B-\Kyy	fy	.	.	.	.	.	.	16b-\K	.	.	.	.	.	16B-\KL	.	.	.	.	.	16b-/KL	.	.	.	16B-\K	.	.	.	.	.	.	.	.	.	.	.	.	.	.	.
!	!	!	!	!	!	!	!	!	!	!	!	!	!LO:DY:rj	!	!LO:DY:rj	!	!	!	!	!	!LO:DY:rj	!	!	!	!	!	!	!	!LO:DY:rj	!	!LO:DY:rj	!	!	!LO:DY:rj	!	!	!	!	!LO:DY:rj	!	!
8.F\	.	8.F\yy	.	4r	.	4r	4rBByy	.	.	8.f\	.	8.dd/L 8.f/	f	8.bb-\L 8.b-\	f	8.F\	8.d/L 8.F/	.	.	8.BB-/L	f	8.f/	.	8.b-/L 8.d/	.	8.F\	.	8.ff/L 8.b-/	f	8.b-/L 8.d/	f	8.ff\L 8.dd\	4rByy	f	8.bb-\L 8.dd\	4rcyy	.	8.bb-\L	f	4r	.
16D\Jk	.	16D\Jkyy	.	.	.	.	.	.	.	16d\Jk	.	16dd/Jk 16f/	.	16bb-\Jk 16b-\	.	16D\Jk	16d/Jk 16F/	.	.	16BB-/Jk	.	16d/Jk	.	16b-/Jk 16d/	.	16D\Jk	.	16ff/Jk 16b-/	.	16b-/Jk 16d/	.	16ff\Jk 16dd\	.	.	16bb-\Jk 16dd\	.	.	16bb-\Jk	.	.	.
4BB-/	.	4BB-/yy	.	4r	.	4r	4rBByy	.	.	4B-/	.	4dd/ 4f/	.	4bb-\ 4b-\	.	4BB-/	4d/ 4F/	.	.	4BB-/	.	4B-/	.	4b-/ 4d/	.	4BB-/	.	4ff/ 4b-/	.	4b-/ 4d/	.	4ff\ 4dd\	4rByy	.	4bb-\ 4dd\	4rcyy	.	4bb-\	.	4r	.
*	*	*	*	*	*	*	*	*	*	*	*	*	*	*	*	*	*	*	*	*	*	*	*	*	*	*	*	*	*	*	*	*v	*v	*	*	*	*	*	*	*	*
*	*	*	*	*	*	*v	*v	*	*	*	*	*	*	*	*	*	*	*	*	*	*	*	*	*	*	*	*	*	*	*	*	*	*	*v	*v	*	*	*	*	*
=:|!	=:|!	=:|!	=:|!	=:|!	=:|!	=:|!	=:|!	=:|!	=:|!	=:|!	=:|!	=:|!	=:|!	=:|!	=:|!	=:|!	=:|!	=:|!	=:|!	=:|!	=:|!	=:|!	=:|!	=:|!	=:|!	=:|!	=:|!	=:|!	=:|!	=:|!	=:|!	=:|!	=:|!	=:|!	=:|!	=:|!	=:|!	=:|!
!!!OMD:Coda
!	!	!	!	!	!	!	!	!	!	!	!	!	!	!	!	!	!	!	!	!	!	!	!	!	!	!	!	!	!	!	!	!LO:DY:a:rj	!	!	!	!	!	!
4r	.	4r	.	4ryy	.	4ryy	.	.	4r	.	4r	.	4r	.	4r	4r	.	4ryy	4r	.	4r	.	4r	.	4r	.	4r	.	4r	.	8.b-/L	p	4r	.	4r	.	8.bb-|\L	p
.	.	.	.	.	.	.	.	.	.	.	.	.	.	.	.	.	.	.	.	.	.	.	.	.	.	.	.	.	.	.	16b-/Jk	.	.	.	.	.	16bb-|\Jk	.
=31	=31	=31	=31	=31	=31	=31	=31	=31	=31	=31	=31	=31	=31	=31	=31	=31	=31	=31	=31	=31	=31	=31	=31	=31	=31	=31	=31	=31	=31	=31	=31	=31	=31	=31	=31	=31	=31	=31
*	*	*	*	*	*	*	*	*	*	*	*	*	*	*	*	*	*	*	*	*	*	*	*	*	*	*	*	*	*	*	*	*	*^	*	*	*	*	*
1r	.	1r	.	1ryy	.	1ryy	.	.	1ryy	.	1ryy	.	1ryy	.	1r	1r	.	1ryy	1r	.	1r	.	1r	.	1r	.	1r	.	1r	.	4b-/	.	(2gg-X/	2ee-\	p	1r	.	4bb-|\	.
.	.	.	.	.	.	.	.	.	.	.	.	.	.	.	.	.	.	.	.	.	.	.	.	.	.	.	.	.	.	.	8.b-/L	.	.	.	.	.	.	8.bb-|\L	.
.	.	.	.	.	.	.	.	.	.	.	.	.	.	.	.	.	.	.	.	.	.	.	.	.	.	.	.	.	.	.	16b-/Jk	.	.	.	.	.	.	16bb-|\Jk	.
.	.	.	.	.	.	.	.	.	.	.	.	.	.	.	.	.	.	.	.	.	.	.	.	.	.	.	.	.	.	.	4b-/	.	4ff/	4dd\	.	.	.	4bb-|\	.
.	.	.	.	.	.	.	.	.	.	.	.	.	.	.	.	.	.	.	.	.	.	.	.	.	.	.	.	.	.	.	8.b-/L	.	4een/	4cc#X\	.	.	.	8.bb-|\L	.
.	.	.	.	.	.	.	.	.	.	.	.	.	.	.	.	.	.	.	.	.	.	.	.	.	.	.	.	.	.	.	16b-/Jk	.	.	.	.	.	.	16bb-|\Jk	.
=32	=32	=32	=32	=32	=32	=32	=32	=32	=32	=32	=32	=32	=32	=32	=32	=32	=32	=32	=32	=32	=32	=32	=32	=32	=32	=32	=32	=32	=32	=32	=32	=32	=32	=32	=32	=32	=32	=32	=32
*	*	*	*	*	*	*	*	*	*	*	*	*	*	*	*	*	*	*	*	*	*	*	*^	*	*	*	*	*	*^	*	*	*	*	*	*	*	*	*	*
1r	.	1r	.	1ryy	.	1ryy	.	.	1ryy	.	1ryy	.	1ryy	.	1r	1r	.	1ryy	1r	.	1r	.	2re	1r	.	1r	.	1r	.	2rd	1r	.	4b-/	.	2.ff/)	2.dd\	.	1ryy	.	4bb-\	.
.	.	.	.	.	.	.	.	.	.	.	.	.	.	.	.	.	.	.	.	.	.	.	.	.	.	.	.	.	.	.	.	.	8.b-/L	.	.	.	.	.	.	8.bb-\L	.
.	.	.	.	.	.	.	.	.	.	.	.	.	.	.	.	.	.	.	.	.	.	.	.	.	.	.	.	.	.	.	.	.	16b-/Jk	.	.	.	.	.	.	16bb-\Jk	.
.	.	.	.	.	.	.	.	.	.	.	.	.	.	.	.	.	.	.	.	.	.	.	4re	.	.	.	.	.	.	4rd	.	.	4b-/	.	.	.	.	.	.	4bb-\	.
!	!	!	!	!	!	!	!	!	!	!	!	!	!	!	!	!	!	!	!	!	!	!	!	!	!LO:DY:rj	!	!	!	!	!	!	!LO:DY:a:rj	!	!	!	!	!	!	!	!	!
.	.	.	.	.	.	.	.	.	.	.	.	.	.	.	.	.	.	.	.	.	.	.	8.b-/L	.	pp	.	.	.	.	8.b-/L	.	pp	4r	.	4r	4rcyy	.	.	.	4r	.
.	.	.	.	.	.	.	.	.	.	.	.	.	.	.	.	.	.	.	.	.	.	.	16b-/Jk	.	.	.	.	.	.	16b-/Jk	.	.	.	.	.	.	.	.	.	.	.
*	*	*	*	*	*	*	*	*	*	*	*	*	*	*	*	*	*	*	*	*	*	*	*	*	*	*	*	*	*	*	*	*	*	*	*v	*v	*	*	*	*	*
*	*	*	*	*	*	*	*	*	*	*	*	*	*	*	*	*	*	*	*	*	*	*	*	*	*	*clefC4	*	*	*	*	*	*	*	*	*	*	*	*	*	*
=33	=33	=33	=33	=33	=33	=33	=33	=33	=33	=33	=33	=33	=33	=33	=33	=33	=33	=33	=33	=33	=33	=33	=33	=33	=33	=33	=33	=33	=33	=33	=33	=33	=33	=33	=33	=33	=33	=33	=33	=33
*	*	*	*	*	*	*	*	*	*	*	*	*	*	*	*	*	*	*	*	*	*	*	*	*	*	*2\right	*	*	*	*	*	*	*	*	*	*	*	*	*	*
1r	.	1r	.	1ryy	.	1ryy	.	.	1ryy	.	1ryy	.	1ryy	.	1r	1r	.	1ryy	1r	.	1r	.	4b-/	1r	.	(2g-X\ 2e-\	pp	1r	.	4b-/	1r	.	1ryy	.	1ryy	.	1ryy	.	1ryy	.
.	.	.	.	.	.	.	.	.	.	.	.	.	.	.	.	.	.	.	.	.	.	.	8.b-/L	.	.	.	.	.	.	8.b-/L	.	.	.	.	.	.	.	.	.	.
.	.	.	.	.	.	.	.	.	.	.	.	.	.	.	.	.	.	.	.	.	.	.	16b-/Jk	.	.	.	.	.	.	16b-/Jk	.	.	.	.	.	.	.	.	.	.
.	.	.	.	.	.	.	.	.	.	.	.	.	.	.	.	.	.	.	.	.	.	.	4b-/	.	.	4f\ 4d\	.	.	.	4b-/	.	.	.	.	.	.	.	.	.	.
.	.	.	.	.	.	.	.	.	.	.	.	.	.	.	.	.	.	.	.	.	.	.	8.b-/L	.	.	4en\ 4c#X\)	.	.	.	8.b-/L	.	.	.	.	.	.	.	.	.	.
.	.	.	.	.	.	.	.	.	.	.	.	.	.	.	.	.	.	.	.	.	.	.	16b-/Jk	.	.	.	.	.	.	16b-/Jk	.	.	.	.	.	.	.	.	.	.
*	*	*	*	*	*	*	*	*	*	*	*	*	*	*	*	*	*	*	*	*	*	*	*v	*v	*	*	*	*	*	*v	*v	*	*	*	*	*	*	*	*	*
!!LO:PB:g=original
=34	=34	=34	=34	=34	=34	=34	=34	=34	=34	=34	=34	=34	=34	=34	=34	=34	=34	=34	=34	=34	=34	=34	=34	=34	=34	=34	=34	=34	=34	=34	=34	=34	=34	=34	=34	=34	=34	=34
1r	.	2r	.	1ryy	.	1ryy	.	.	2r	.	4r	.	4r	.	1ryy	1ryy	.	1ryy	1ryy	.	1ryy	.	4b-/	.	4f\ 4d\	.	1r	.	4b-/	.	1ryy	.	1ryy	.	1ryy	.	1ryy	.
.	.	.	.	.	.	.	.	.	.	.	8r	.	8r	p	.	.	.	.	.	.	.	.	4r	.	4r	.	.	.	4r	.	.	.	.	.	.	.	.	.
.	.	.	.	.	.	.	.	.	.	.	(16f/LL	.	(16f/LL	.	.	.	.	.	.	.	.	.	.	.	.	.	.	.	.	.	.	.	.	.	.	.	.	.
.	.	.	.	.	.	.	.	.	.	.	16b-/JJ)	.	16b-/JJ)	.	.	.	.	.	.	.	.	.	.	.	.	.	.	.	.	.	.	.	.	.	.	.	.	.
!	!	!	!	!	!	!	!	!	!	!LO:DY:rj	!	!	!	!	!	!	!	!	!	!	!	!	!	!	!	!	!	!	!	!	!	!	!	!	!	!	!	!
.	.	(4B-\	.	.	.	.	.	.	4B-/	p	[2b-\	.	4dd\	.	.	.	.	.	.	.	.	.	2r	.	2r	.	.	.	2r	.	.	.	.	.	.	.	.	.
.	.	4d\	.	.	.	.	.	.	4d\	.	.	.	4ff\	.	.	.	.	.	.	.	.	.	.	.	.	.	.	.	.	.	.	.	.	.	.	.	.	.
=35	=35	=35	=35	=35	=35	=35	=35	=35	=35	=35	=35	=35	=35	=35	=35	=35	=35	=35	=35	=35	=35	=35	=35	=35	=35	=35	=35	=35	=35	=35	=35	=35	=35	=35	=35	=35	=35	=35
*	*	*2\right	*	*	*	*	*	*	*	*	*	*	*	*	*	*	*	*	*	*	*	*	*	*	*	*	*	*	*	*	*	*	*	*	*	*	*	*
1r	.	2.f\)	.	1ryy	.	1ryy	.	.	[1f\	.	(4b-/]	.	(2.cc\	.	1ryy	1ryy	.	1ryy	1ryy	.	1ryy	.	1ryy	.	1ryy	.	1ryy	.	1ryy	.	1ryy	.	1ryy	.	1ryy	.	1ryy	.
.	.	.	.	.	.	.	.	.	.	.	8a/L	.	.	.	.	.	.	.	.	.	.	.	.	.	.	.	.	.	.	.	.	.	.	.	.	.	.	.
.	.	.	.	.	.	.	.	.	.	.	8g/J	.	.	.	.	.	.	.	.	.	.	.	.	.	.	.	.	.	.	.	.	.	.	.	.	.	.	.
.	.	.	.	.	.	.	.	.	.	.	2a/)	.	.	.	.	.	.	.	.	.	.	.	.	.	.	.	.	.	.	.	.	.	.	.	.	.	.	.
.	.	4F\	.	.	.	.	.	.	.	.	.	.	4ff\)	.	.	.	.	.	.	.	.	.	.	.	.	.	.	.	.	.	.	.	.	.	.	.	.	.
=36	=36	=36	=36	=36	=36	=36	=36	=36	=36	=36	=36	=36	=36	=36	=36	=36	=36	=36	=36	=36	=36	=36	=36	=36	=36	=36	=36	=36	=36	=36	=36	=36	=36	=36	=36	=36	=36	=36
*	*	*	*	*	*	*	*	*	*	*	*	*	*	*	*	*	*	*	*	*	*	*	*	*	*	*	*	*	*	*	*^	*	*^	*	*	*	*	*
1r	.	4B-\	.	1ryy	.	1ryy	.	.	4f\] 4B-\	.	4b-/	.	4dd\	.	1ryy	1ryy	.	1ryy	1ryy	.	1ryy	.	1ryy	.	1ryy	.	1ryy	.	1ryy	.	4rf	2r	.	4rg	2r	.	1ryy	.	4r	.
.	.	4r	.	.	.	.	.	.	4r	.	4r	.	4r	.	.	.	.	.	.	.	.	.	.	.	.	.	.	.	.	.	8rd	.	.	8rg	.	.	.	.	8r	.
!	!	!	!	!	!	!	!	!	!	!	!	!	!	!	!	!	!	!	!	!	!	!	!	!	!	!	!	!	!	!	!	!	!	!	!	!LO:DY:a	!	!	!	!
.	.	.	.	.	.	.	.	.	.	.	.	.	.	.	.	.	.	.	.	.	.	.	.	.	.	.	.	.	.	.	(<16f/LL	.	p	(16ff/LL	.	p	.	.	(16ff\LL	p
.	.	.	.	.	.	.	.	.	.	.	.	.	.	.	.	.	.	.	.	.	.	.	.	.	.	.	.	.	.	.	16b-/JJ)	.	.	16bb-/JJ	.	.	.	.	16bb-\JJ	.
.	.	2r	.	.	.	.	.	.	2r	.	2r	.	2r	.	.	.	.	.	.	.	.	.	.	.	.	.	.	.	.	.	4dd/	4b-\	.	(2bb-/)	4b-\	.	.	.	4ddd\)	.
.	.	.	.	.	.	.	.	.	.	.	.	.	.	.	.	.	.	.	.	.	.	.	.	.	.	.	.	.	.	.	4ff/	4dd\	.	.	4dd\	.	.	.	4fff\	.
=37	=37	=37	=37	=37	=37	=37	=37	=37	=37	=37	=37	=37	=37	=37	=37	=37	=37	=37	=37	=37	=37	=37	=37	=37	=37	=37	=37	=37	=37	=37	=37	=37	=37	=37	=37	=37	=37	=37	=37	=37
1r	.	1r	.	1ryy	.	1ryy	.	.	1r	.	1r	.	1r	.	1ryy	1ryy	.	1ryy	1ryy	.	1ryy	.	1ryy	.	1ryy	.	1ryy	.	1ryy	.	2.ff/	2.ff\	.	4bb-/	1ff\	.	1ryy	.	(2.ccc\	.
.	.	.	.	.	.	.	.	.	.	.	.	.	.	.	.	.	.	.	.	.	.	.	.	.	.	.	.	.	.	.	.	.	.	8aa/L	.	.	.	.	.	.
.	.	.	.	.	.	.	.	.	.	.	.	.	.	.	.	.	.	.	.	.	.	.	.	.	.	.	.	.	.	.	.	.	.	8gg/J	.	.	.	.	.	.
.	.	.	.	.	.	.	.	.	.	.	.	.	.	.	.	.	.	.	.	.	.	.	.	.	.	.	.	.	.	.	.	.	.	2aa/)	.	.	.	.	.	.
.	.	.	.	.	.	.	.	.	.	.	.	.	.	.	.	.	.	.	.	.	.	.	.	.	.	.	.	.	.	.	4ff/	4f\	.	.	.	.	.	.	4fff\)	.
=38	=38	=38	=38	=38	=38	=38	=38	=38	=38	=38	=38	=38	=38	=38	=38	=38	=38	=38	=38	=38	=38	=38	=38	=38	=38	=38	=38	=38	=38	=38	=38	=38	=38	=38	=38	=38	=38	=38	=38	=38
1r	.	1r	.	1ryy	.	1ryy	.	.	1r	.	1r	.	1r	.	1ryy	1ryy	.	4ryy	1ryy	.	1ryy	.	1ryy	.	1ryy	.	1ryy	.	1ryy	.	4b-/	4b-\	.	4bb-/	4b-\	.	1ryy	.	4bb-\	.
!	!	!	!	!	!	!	!	!	!	!	!	!	!	!	!	!	!	!LO:TX:a:i:t=Triangolo	!	!	!	!	!	!	!	!	!	!	!	!	!	!	!	!	!	!	!	!	!	!
.	.	.	.	.	.	.	.	.	.	.	.	.	.	.	.	.	.	8.Ree/L	.	.	.	.	.	.	.	.	.	.	.	.	4rcc	4rByy	.	4raa	4rgyy	.	.	.	4r	.
.	.	.	.	.	.	.	.	.	.	.	.	.	.	.	.	.	.	16Ree/Jk	.	.	.	.	.	.	.	.	.	.	.	.	.	.	.	.	.	.	.	.	.	.
.	.	.	.	.	.	.	.	.	.	.	.	.	.	.	.	.	.	4Ree/	.	.	.	.	.	.	.	.	.	.	.	.	2r	2rByy	.	2rff	2rcyy	.	.	.	2r	.
.	.	.	.	.	.	.	.	.	.	.	.	.	.	.	.	.	.	8.Ree/L	.	.	.	.	.	.	.	.	.	.	.	.	.	.	.	.	.	.	.	.	.	.
.	.	.	.	.	.	.	.	.	.	.	.	.	.	.	.	.	.	16Ree/Jk	.	.	.	.	.	.	.	.	.	.	.	.	.	.	.	.	.	.	.	.	.	.
*	*	*	*	*	*	*	*	*	*	*	*	*	*	*	*	*	*	*	*	*	*	*	*	*	*	*	*	*	*	*	*	*	*	*v	*v	*	*	*	*	*
!!LO:PB:g=original
=39	=39	=39	=39	=39	=39	=39	=39	=39	=39	=39	=39	=39	=39	=39	=39	=39	=39	=39	=39	=39	=39	=39	=39	=39	=39	=39	=39	=39	=39	=39	=39	=39	=39	=39	=39	=39	=39	=39	=39
*	*	*	*	*	*	*	*	*	*	*	*	*	*	*	*	*	*	*	*	*	*	*	*	*	*	*	*	*	*^	*	*	*	*	*	*	*	*	*	*
*	*	*	*	*	*	*	*	*	*tremolo	*	*tremolo	*	*tremolo	*	*	*	*	*	*tremolo	*	*	*	*	*	*	*	*	*	*	*	*	*	*	*	*	*	*	*	*	*
!	!LO:DY:rj	!	!	!	!	!	!	!	!	!	!	!	!	!LO:DY:rj	!	!	!LO:DY:rj	!	!	!LO:DY:rj	!	!	!	!	!	!LO:DY:rj	!	!	!	!	!LO:DY:rj	!	!	!	!	!LO:DY:rj	!	!	!	!LO:DY:rj
4.BB-/	ff	1ryy	.	1ryy	.	1ryy	.	.	32ee-\LLL 32g-X\	.	32gg-X\LLL 32b-\	.	32eee-\LLL 32ee-\	ff	4.BB-/	[1e-\ [>1G-X\	ff	1ryy	32BB-/LLL	ff	4b-\	.	[1g-X/ [>1e-/	.	4.BB-/ 4.BBB-/	ff	[1gg-X\ [>1b-\	.	1ee-/	1b-\	ff	[1ee-/	[>1b-\	.	[1bb-\ [>1gg-X\	ff	[1eee-\	.	[1eee-\	ff
.	.	.	.	.	.	.	.	.	32ee-\ 32g-\	.	32gg-\ 32b-\	.	32eee-\ 32ee-\	.	.	.	.	.	32BB-/	.	.	.	.	.	.	.	.	.	.	.	.	.	.	.	.	.	.	.	.	.
.	.	.	.	.	.	.	.	.	32ee-\ 32g-\	.	32gg-\ 32b-\	.	32eee-\ 32ee-\	.	.	.	.	.	32BB-/	.	.	.	.	.	.	.	.	.	.	.	.	.	.	.	.	.	.	.	.	.
.	.	.	.	.	.	.	.	.	32ee-\ 32g-\	.	32gg-\ 32b-\	.	32eee-\ 32ee-\	.	.	.	.	.	32BB-/	.	.	.	.	.	.	.	.	.	.	.	.	.	.	.	.	.	.	.	.	.
.	.	.	.	.	.	.	.	.	32ee-\ 32g-\	.	32gg-\ 32b-\	.	32eee-\ 32ee-\	.	.	.	.	.	32BB-/	.	.	.	.	.	.	.	.	.	.	.	.	.	.	.	.	.	.	.	.	.
.	.	.	.	.	.	.	.	.	32ee-\ 32g-\	.	32gg-\ 32b-\	.	32eee-\ 32ee-\	.	.	.	.	.	32BB-/	.	.	.	.	.	.	.	.	.	.	.	.	.	.	.	.	.	.	.	.	.
.	.	.	.	.	.	.	.	.	32ee-\ 32g-\	.	32gg-\ 32b-\	.	32eee-\ 32ee-\	.	.	.	.	.	32BB-/	.	.	.	.	.	.	.	.	.	.	.	.	.	.	.	.	.	.	.	.	.
.	.	.	.	.	.	.	.	.	32ee-\ 32g-\	.	32gg-\ 32b-\	.	32eee-\ 32ee-\	.	.	.	.	.	32BB-/	.	.	.	.	.	.	.	.	.	.	.	.	.	.	.	.	.	.	.	.	.
.	.	.	.	.	.	.	.	.	32ee-\ 32g-\	.	32gg-\ 32b-\	.	32eee-\ 32ee-\	.	.	.	.	.	32BB-/	.	8r	.	.	.	.	.	.	.	.	.	.	.	.	.	.	.	.	.	.	.
.	.	.	.	.	.	.	.	.	32ee-\ 32g-\	.	32gg-\ 32b-\	.	32eee-\ 32ee-\	.	.	.	.	.	32BB-/	.	.	.	.	.	.	.	.	.	.	.	.	.	.	.	.	.	.	.	.	.
.	.	.	.	.	.	.	.	.	32ee-\ 32g-\	.	32gg-\ 32b-\	.	32eee-\ 32ee-\	.	.	.	.	.	32BB-/	.	.	.	.	.	.	.	.	.	.	.	.	.	.	.	.	.	.	.	.	.
.	.	.	.	.	.	.	.	.	32ee-\ 32g-\	.	32gg-\ 32b-\	.	32eee-\ 32ee-\	.	.	.	.	.	32BB-/	.	.	.	.	.	.	.	.	.	.	.	.	.	.	.	.	.	.	.	.	.
8BB-/	.	.	.	.	.	.	.	.	32ee-\ 32g-\	.	32gg-\ 32b-\	.	32eee-\ 32ee-\	.	8BB-/	.	.	.	32BB-/	.	16b-\LL	.	.	.	8BB-/ 8BBB-/	.	.	.	.	.	.	.	.	.	.	.	.	.	.	.
.	.	.	.	.	.	.	.	.	32ee-\ 32g-\	.	32gg-\ 32b-\	.	32eee-\ 32ee-\	.	.	.	.	.	32BB-/	.	.	.	.	.	.	.	.	.	.	.	.	.	.	.	.	.	.	.	.	.
.	.	.	.	.	.	.	.	.	32ee-\ 32g-\	.	32gg-\ 32b-\	.	32eee-\ 32ee-\	.	.	.	.	.	32BB-/	.	16b-\JJ	.	.	.	.	.	.	.	.	.	.	.	.	.	.	.	.	.	.	.
.	.	.	.	.	.	.	.	.	32ee-\ 32g-\	.	32gg-\ 32b-\	.	32eee-\ 32ee-\	.	.	.	.	.	32BB-/	.	.	.	.	.	.	.	.	.	.	.	.	.	.	.	.	.	.	.	.	.
4E-\	.	.	.	.	.	.	.	.	32ee-\ 32g-\	.	32gg-\ 32b-\	.	32eee-\ 32ee-\	.	4E-\	.	.	.	32BB-/	.	4b-\	.	.	.	4E-/ 4EE-/	.	.	.	.	.	.	.	.	.	.	.	.	.	.	.
.	.	.	.	.	.	.	.	.	32ee-\ 32g-\	.	32gg-\ 32b-\	.	32eee-\ 32ee-\	.	.	.	.	.	32BB-/	.	.	.	.	.	.	.	.	.	.	.	.	.	.	.	.	.	.	.	.	.
.	.	.	.	.	.	.	.	.	32ee-\ 32g-\	.	32gg-\ 32b-\	.	32eee-\ 32ee-\	.	.	.	.	.	32BB-/	.	.	.	.	.	.	.	.	.	.	.	.	.	.	.	.	.	.	.	.	.
.	.	.	.	.	.	.	.	.	32ee-\ 32g-\	.	32gg-\ 32b-\	.	32eee-\ 32ee-\	.	.	.	.	.	32BB-/	.	.	.	.	.	.	.	.	.	.	.	.	.	.	.	.	.	.	.	.	.
.	.	.	.	.	.	.	.	.	32ee-\ 32g-\	.	32gg-\ 32b-\	.	32eee-\ 32ee-\	.	.	.	.	.	32BB-/	.	.	.	.	.	.	.	.	.	.	.	.	.	.	.	.	.	.	.	.	.
.	.	.	.	.	.	.	.	.	32ee-\ 32g-\	.	32gg-\ 32b-\	.	32eee-\ 32ee-\	.	.	.	.	.	32BB-/	.	.	.	.	.	.	.	.	.	.	.	.	.	.	.	.	.	.	.	.	.
.	.	.	.	.	.	.	.	.	32ee-\ 32g-\	.	32gg-\ 32b-\	.	32eee-\ 32ee-\	.	.	.	.	.	32BB-/	.	.	.	.	.	.	.	.	.	.	.	.	.	.	.	.	.	.	.	.	.
.	.	.	.	.	.	.	.	.	32ee-\ 32g-\	.	32gg-\ 32b-\	.	32eee-\ 32ee-\	.	.	.	.	.	32BB-/	.	.	.	.	.	.	.	.	.	.	.	.	.	.	.	.	.	.	.	.	.
4G-X\	.	.	.	.	.	.	.	.	32ee-\ 32g-\	.	32gg-\ 32b-\	.	32eee-\ 32ee-\	.	4G-X\	.	.	.	32BB-/	.	8r	.	.	.	4G-X/ 4GG-X/	.	.	.	.	.	.	.	.	.	.	.	.	.	.	.
.	.	.	.	.	.	.	.	.	32ee-\ 32g-\	.	32gg-\ 32b-\	.	32eee-\ 32ee-\	.	.	.	.	.	32BB-/	.	.	.	.	.	.	.	.	.	.	.	.	.	.	.	.	.	.	.	.	.
.	.	.	.	.	.	.	.	.	32ee-\ 32g-\	.	32gg-\ 32b-\	.	32eee-\ 32ee-\	.	.	.	.	.	32BB-/	.	.	.	.	.	.	.	.	.	.	.	.	.	.	.	.	.	.	.	.	.
.	.	.	.	.	.	.	.	.	32ee-\ 32g-\	.	32gg-\ 32b-\	.	32eee-\ 32ee-\	.	.	.	.	.	32BB-/	.	.	.	.	.	.	.	.	.	.	.	.	.	.	.	.	.	.	.	.	.
.	.	.	.	.	.	.	.	.	32ee-\ 32g-\	.	32gg-\ 32b-\	.	32eee-\ 32ee-\	.	.	.	.	.	32BB-/	.	16b-\LL	.	.	.	.	.	.	.	.	.	.	.	.	.	.	.	.	.	.	.
.	.	.	.	.	.	.	.	.	32ee-\ 32g-\	.	32gg-\ 32b-\	.	32eee-\ 32ee-\	.	.	.	.	.	32BB-/	.	.	.	.	.	.	.	.	.	.	.	.	.	.	.	.	.	.	.	.	.
.	.	.	.	.	.	.	.	.	32ee-\ 32g-\	.	32gg-\ 32b-\	.	32eee-\ 32ee-\	.	.	.	.	.	32BB-/	.	16b-\JJ	.	.	.	.	.	.	.	.	.	.	.	.	.	.	.	.	.	.	.
.	.	.	.	.	.	.	.	.	32ee-\JJJ 32g-\	.	32gg-\JJJ 32b-\	.	32eee-\JJJ 32ee-\	.	.	.	.	.	32BB-/JJJ	.	.	.	.	.	.	.	.	.	.	.	.	.	.	.	.	.	.	.	.	.
!!LO:PB:g=original
=40	=40	=40	=40	=40	=40	=40	=40	=40	=40	=40	=40	=40	=40	=40	=40	=40	=40	=40	=40	=40	=40	=40	=40	=40	=40	=40	=40	=40	=40	=40	=40	=40	=40	=40	=40	=40	=40	=40	=40	=40
4.B-\	.	1ryy	.	1ryy	.	1ryy	.	.	32ee-\LLL 32g-X\	.	32gg-X\LLL 32b-\	.	32eee-\LLL 32ee-\	.	4.B-\	1e-\] 1G-X\]	.	1ryy	32BB-/LLL	.	4b-\	.	1g-X/] 1e-/]	.	4.B-\ 4.BB-\	.	1gg-X\] 1b-\]	.	1ee-/	1b-\	.	1ee-/]	1b-\]	.	1bb-\] 1gg-X\]	.	1eee-\]	.	1eee-\]	.
.	.	.	.	.	.	.	.	.	32ee-\ 32g-\	.	32gg-\ 32b-\	.	32eee-\ 32ee-\	.	.	.	.	.	32BB-/	.	.	.	.	.	.	.	.	.	.	.	.	.	.	.	.	.	.	.	.	.
.	.	.	.	.	.	.	.	.	32ee-\ 32g-\	.	32gg-\ 32b-\	.	32eee-\ 32ee-\	.	.	.	.	.	32BB-/	.	.	.	.	.	.	.	.	.	.	.	.	.	.	.	.	.	.	.	.	.
.	.	.	.	.	.	.	.	.	32ee-\ 32g-\	.	32gg-\ 32b-\	.	32eee-\ 32ee-\	.	.	.	.	.	32BB-/	.	.	.	.	.	.	.	.	.	.	.	.	.	.	.	.	.	.	.	.	.
.	.	.	.	.	.	.	.	.	32ee-\ 32g-\	.	32gg-\ 32b-\	.	32eee-\ 32ee-\	.	.	.	.	.	32BB-/	.	.	.	.	.	.	.	.	.	.	.	.	.	.	.	.	.	.	.	.	.
.	.	.	.	.	.	.	.	.	32ee-\ 32g-\	.	32gg-\ 32b-\	.	32eee-\ 32ee-\	.	.	.	.	.	32BB-/	.	.	.	.	.	.	.	.	.	.	.	.	.	.	.	.	.	.	.	.	.
.	.	.	.	.	.	.	.	.	32ee-\ 32g-\	.	32gg-\ 32b-\	.	32eee-\ 32ee-\	.	.	.	.	.	32BB-/	.	.	.	.	.	.	.	.	.	.	.	.	.	.	.	.	.	.	.	.	.
.	.	.	.	.	.	.	.	.	32ee-\ 32g-\	.	32gg-\ 32b-\	.	32eee-\ 32ee-\	.	.	.	.	.	32BB-/	.	.	.	.	.	.	.	.	.	.	.	.	.	.	.	.	.	.	.	.	.
.	.	.	.	.	.	.	.	.	32ee-\ 32g-\	.	32gg-\ 32b-\	.	32eee-\ 32ee-\	.	.	.	.	.	32BB-/	.	8r	.	.	.	.	.	.	.	.	.	.	.	.	.	.	.	.	.	.	.
.	.	.	.	.	.	.	.	.	32ee-\ 32g-\	.	32gg-\ 32b-\	.	32eee-\ 32ee-\	.	.	.	.	.	32BB-/	.	.	.	.	.	.	.	.	.	.	.	.	.	.	.	.	.	.	.	.	.
.	.	.	.	.	.	.	.	.	32ee-\ 32g-\	.	32gg-\ 32b-\	.	32eee-\ 32ee-\	.	.	.	.	.	32BB-/	.	.	.	.	.	.	.	.	.	.	.	.	.	.	.	.	.	.	.	.	.
.	.	.	.	.	.	.	.	.	32ee-\ 32g-\	.	32gg-\ 32b-\	.	32eee-\ 32ee-\	.	.	.	.	.	32BB-/	.	.	.	.	.	.	.	.	.	.	.	.	.	.	.	.	.	.	.	.	.
8BB-/	.	.	.	.	.	.	.	.	32ee-\ 32g-\	.	32gg-\ 32b-\	.	32eee-\ 32ee-\	.	8BB-/	.	.	.	32BB-/	.	16b-\LL	.	.	.	8BB-/ 8BBB-/	.	.	.	.	.	.	.	.	.	.	.	.	.	.	.
.	.	.	.	.	.	.	.	.	32ee-\ 32g-\	.	32gg-\ 32b-\	.	32eee-\ 32ee-\	.	.	.	.	.	32BB-/	.	.	.	.	.	.	.	.	.	.	.	.	.	.	.	.	.	.	.	.	.
.	.	.	.	.	.	.	.	.	32ee-\ 32g-\	.	32gg-\ 32b-\	.	32eee-\ 32ee-\	.	.	.	.	.	32BB-/	.	16b-\JJ	.	.	.	.	.	.	.	.	.	.	.	.	.	.	.	.	.	.	.
.	.	.	.	.	.	.	.	.	32ee-\ 32g-\	.	32gg-\ 32b-\	.	32eee-\ 32ee-\	.	.	.	.	.	32BB-/	.	.	.	.	.	.	.	.	.	.	.	.	.	.	.	.	.	.	.	.	.
4G-X\	.	.	.	.	.	.	.	.	32ee-\ 32g-\	.	32gg-\ 32b-\	.	32eee-\ 32ee-\	.	4G-X\	.	.	.	32BB-/	.	4b-\	.	.	.	4G-X/ 4GG-X/	.	.	.	.	.	.	.	.	.	.	.	.	.	.	.
.	.	.	.	.	.	.	.	.	32ee-\ 32g-\	.	32gg-\ 32b-\	.	32eee-\ 32ee-\	.	.	.	.	.	32BB-/	.	.	.	.	.	.	.	.	.	.	.	.	.	.	.	.	.	.	.	.	.
.	.	.	.	.	.	.	.	.	32ee-\ 32g-\	.	32gg-\ 32b-\	.	32eee-\ 32ee-\	.	.	.	.	.	32BB-/	.	.	.	.	.	.	.	.	.	.	.	.	.	.	.	.	.	.	.	.	.
.	.	.	.	.	.	.	.	.	32ee-\ 32g-\	.	32gg-\ 32b-\	.	32eee-\ 32ee-\	.	.	.	.	.	32BB-/	.	.	.	.	.	.	.	.	.	.	.	.	.	.	.	.	.	.	.	.	.
.	.	.	.	.	.	.	.	.	32ee-\ 32g-\	.	32gg-\ 32b-\	.	32eee-\ 32ee-\	.	.	.	.	.	32BB-/	.	.	.	.	.	.	.	.	.	.	.	.	.	.	.	.	.	.	.	.	.
.	.	.	.	.	.	.	.	.	32ee-\ 32g-\	.	32gg-\ 32b-\	.	32eee-\ 32ee-\	.	.	.	.	.	32BB-/	.	.	.	.	.	.	.	.	.	.	.	.	.	.	.	.	.	.	.	.	.
.	.	.	.	.	.	.	.	.	32ee-\ 32g-\	.	32gg-\ 32b-\	.	32eee-\ 32ee-\	.	.	.	.	.	32BB-/	.	.	.	.	.	.	.	.	.	.	.	.	.	.	.	.	.	.	.	.	.
.	.	.	.	.	.	.	.	.	32ee-\ 32g-\	.	32gg-\ 32b-\	.	32eee-\ 32ee-\	.	.	.	.	.	32BB-/	.	.	.	.	.	.	.	.	.	.	.	.	.	.	.	.	.	.	.	.	.
4E-\	.	.	.	.	.	.	.	.	32ee-\ 32g-\	.	32gg-\ 32b-\	.	32eee-\ 32ee-\	.	4E-\	.	.	.	32BB-/	.	4b-\	.	.	.	4E-/ 4EE-/	.	.	.	.	.	.	.	.	.	.	.	.	.	.	.
.	.	.	.	.	.	.	.	.	32ee-\ 32g-\	.	32gg-\ 32b-\	.	32eee-\ 32ee-\	.	.	.	.	.	32BB-/	.	.	.	.	.	.	.	.	.	.	.	.	.	.	.	.	.	.	.	.	.
.	.	.	.	.	.	.	.	.	32ee-\ 32g-\	.	32gg-\ 32b-\	.	32eee-\ 32ee-\	.	.	.	.	.	32BB-/	.	.	.	.	.	.	.	.	.	.	.	.	.	.	.	.	.	.	.	.	.
.	.	.	.	.	.	.	.	.	32ee-\ 32g-\	.	32gg-\ 32b-\	.	32eee-\ 32ee-\	.	.	.	.	.	32BB-/	.	.	.	.	.	.	.	.	.	.	.	.	.	.	.	.	.	.	.	.	.
.	.	.	.	.	.	.	.	.	32ee-\ 32g-\	.	32gg-\ 32b-\	.	32eee-\ 32ee-\	.	.	.	.	.	32BB-/	.	.	.	.	.	.	.	.	.	.	.	.	.	.	.	.	.	.	.	.	.
.	.	.	.	.	.	.	.	.	32ee-\ 32g-\	.	32gg-\ 32b-\	.	32eee-\ 32ee-\	.	.	.	.	.	32BB-/	.	.	.	.	.	.	.	.	.	.	.	.	.	.	.	.	.	.	.	.	.
.	.	.	.	.	.	.	.	.	32ee-\ 32g-\	.	32gg-\ 32b-\	.	32eee-\ 32ee-\	.	.	.	.	.	32BB-/	.	.	.	.	.	.	.	.	.	.	.	.	.	.	.	.	.	.	.	.	.
.	.	.	.	.	.	.	.	.	32ee-\JJJ 32g-\	.	32gg-\JJJ 32b-\	.	32eee-\JJJ 32ee-\	.	.	.	.	.	32BB-/JJJ	.	.	.	.	.	.	.	.	.	.	.	.	.	.	.	.	.	.	.	.	.
=41	=41	=41	=41	=41	=41	=41	=41	=41	=41	=41	=41	=41	=41	=41	=41	=41	=41	=41	=41	=41	=41	=41	=41	=41	=41	=41	=41	=41	=41	=41	=41	=41	=41	=41	=41	=41	=41	=41	=41	=41
4BB-/	.	1ryy	.	1ryy	.	1ryy	.	.	4dd\ 4f\	.	4bb-\ 4b-\	.	4ddd\ 4ff\	.	4BB-/	4d/ 4F/	.	1ryy	4BB-/	.	4b-\	.	4f/ 4d/	.	4BB-/ 4BBB-/	.	4ff/ 4b-/	.	4dd/	4b-\	.	1dd/	1b-\	.	1bb-\ 1ff\	.	4ddd\	.	[1ddd\	.
4r	.	.	.	.	.	.	.	.	4r	.	4r	.	4r	.	4r	4r	.	.	4r	.	4r	.	4r	.	4r	.	4r	.	4r	4rByy	.	.	.	.	.	.	4r	.	.	.
2r	.	.	.	.	.	.	.	.	2r	.	2r	.	2r	.	2r	2r	.	.	2r	.	2r	.	2r	.	2r	.	2r	.	2r	2rByy	.	.	.	.	.	.	2r	.	.	.
=42	=42	=42	=42	=42	=42	=42	=42	=42	=42	=42	=42	=42	=42	=42	=42	=42	=42	=42	=42	=42	=42	=42	=42	=42	=42	=42	=42	=42	=42	=42	=42	=42	=42	=42	=42	=42	=42	=42	=42	=42
!LO:TX:b:i:t=sec	!	!	!	!	!	!	!	!	!	!	!	!	!	!	!	!	!	!	!	!	!	!	!	!	!	!	!	!	!LO:TX:b:i:t=sec	!	!	!LO:TX:b:i:t=sec	!	!	!	!	!LO:TX:b:i:t=sec	!	!	!
4BB-/	.	1ryy	.	1ryy	.	1ryy	.	.	4f\ 4B-\	.	4b-/ 4f/ 4B-/	.	4bb-\ 4b-\ 4d\	.	4B-\ 4BB-\	4d/ 4F/	.	1ryy	4BB-/	.	4b-\	.	4f/ 4d/	.	4BB-/ 4BBB-/	.	4ff/ 4b-/	.	4dd/	4b-\	.	4dd/	4b-\	.	4bb-\ 4ff\	.	4bb-\	.	4ddd\]	.
4r	.	.	.	.	.	.	.	.	4r	.	4r	.	4r	.	4r	4r	.	.	4r	.	4r	.	4r	.	4r	.	4r	.	4r	4rByy	.	4r	4rByy	.	4r	.	4r	.	4r	.
2r	.	.	.	.	.	.	.	.	2r	.	2r	.	2r	.	2r	2r	.	.	2r	.	2r	.	2r	.	2r	.	2r	.	2r	2rByy	.	2r	2rByy	.	2r	.	2r	.	2r	.
*	*	*	*	*	*	*	*	*	*	*	*	*	*	*	*	*	*	*	*	*	*	*	*	*	*	*	*	*	*v	*v	*	*	*	*	*	*	*	*	*	*
*	*	*	*	*	*	*	*	*	*	*	*	*	*	*	*	*	*	*	*	*	*	*	*	*	*	*	*	*	*	*	*v	*v	*	*	*	*	*	*	*
==	==	==	==	==	==	==	==	==	==	==	==	==	==	==	==	==	==	==	==	==	==	==	==	==	==	==	==	==	==	==	==	==	==	==	==	==	==	==
*-	*-	*-	*-	*-	*-	*-	*-	*-	*-	*-	*-	*-	*-	*-	*-	*-	*-	*-	*-	*-	*-	*-	*-	*-	*-	*-	*-	*-	*-	*-	*-	*-	*-	*-	*-	*-	*-	*-
!!!RDF**kern: | = vertical stroke
!!!RDF**kern: > = above
!!!RDF**kern: < = below
!!!EED: Andrzej Borzym
!!!EST: 2021-06-13
!!!ENC: Mateusz Solarz
!!!END: 2021-06-07
